; GCode by Repsnapper, Շբթ, 03/18/17

; Startcode
; GCode generated by RepSnapper:
; http://reprap.org/wiki/RepSnapper_Manual:Introduction
G21             ; metric is good!
G90             ; absolute positioning
T0              ; select new extruder
G28             ; go home
G92 E0          ; set extruder home
M104 S200.0     ; set temperature to 200.0
G1 X20 Y20 F500 ; move away from 0.0, to use the same reset for each layer

; End Startcode

G21 ; Millimeters
G90 ; Absolute Pos
M82 ; Absolute E Code
; Layer S0 ; Layer at Z=0.182 No=0, thickn=0.26, 1 skins, 4 polys, 2 shells, 4 fullfill polys, 0 bridge polys, 0 skin fullfill polys, 0 support polys, infill:  normal 0, full 4, support 0, skinfills 0
M106 S211
; Shell
G1 X30.6862 Y12.9470 Z0.1820 E0.00000 F10800 ;  Z-Change
G1 X31.7310 Y12.8133 E0.02258 F1340
G1 X32.9381 Y12.7620 E0.04847
G1 X34.1451 Y12.8133 E0.07437
G1 X35.3422 Y12.9665 E0.10024
G1 X36.5224 Y13.2209 E0.12612
G1 X37.6763 Y13.5742 E0.15198
G1 X38.7974 Y14.0247 E0.17788
G1 X39.8760 Y14.5685 E0.20377
G1 X40.9036 Y15.2013 E0.22964
G1 X41.8752 Y15.9199 E0.25554
G1 X42.7807 Y16.7169 E0.28140
G1 X43.6165 Y17.5890 E0.30729
G1 X44.3746 Y18.5279 E0.33316
G1 X45.0524 Y19.5306 E0.35910
G1 X45.7036 Y20.7231 E0.38822
G1 X46.1374 Y21.6826 E0.41079
G1 X46.5397 Y22.8214 E0.43668
G1 X46.8442 Y23.9904 E0.46257
G1 X47.0481 Y25.1801 E0.48845
G1 X47.1505 Y26.3838 E0.51434
G1 Y27.5905 E0.54021
G1 X47.0478 Y28.7955 E0.56613
G1 X46.8053 Y30.1331 E0.59527
G1 X46.5398 Y31.1526 E0.61785
G1 X46.1374 Y32.2916 E0.64374
G1 X45.6402 Y33.3910 E0.66960
G1 X45.0517 Y34.4449 E0.69548
G1 X44.3746 Y35.4464 E0.72139
G1 X43.6165 Y36.3853 E0.74726
G1 X42.7807 Y37.2573 E0.77315
G1 X41.8752 Y38.0544 E0.79900
G1 X40.9036 Y38.7730 E0.82491
G1 X39.8760 Y39.4059 E0.85078
G1 X38.7968 Y39.9497 E0.87668
G1 X37.6768 Y40.3999 E0.90255
G1 X36.5224 Y40.7534 E0.92843
G1 X35.3422 Y41.0078 E0.95431
G1 X34.1451 Y41.1611 E0.98018
G1 X32.9381 Y41.2123 E1.00607
G1 X31.7310 Y41.1611 E1.03197
G1 X30.5339 Y41.0078 E1.05784
G1 X29.3536 Y40.7534 E1.08372
G1 X28.1993 Y40.3999 E1.10959
G1 X27.0793 Y39.9497 E1.13547
G1 X26.0002 Y39.4059 E1.16137
G1 X24.9725 Y38.7730 E1.18724
G1 X24.0010 Y38.0544 E1.21314
G1 X23.0955 Y37.2573 E1.23900
G1 X22.2595 Y36.3853 E1.26489
G1 X21.5014 Y35.4464 E1.29076
G1 X20.8238 Y34.4437 E1.31670
G1 X20.1731 Y33.2524 E1.34579
G1 X19.7386 Y32.2906 E1.36842
G1 X19.3365 Y31.1529 E1.39428
G1 X19.0319 Y29.9839 E1.42017
G1 X18.8280 Y28.7943 E1.44604
G1 X18.7257 Y27.5907 E1.47194
G1 Y26.3837 E1.49781
G1 X18.8284 Y25.1788 E1.52373
G1 X19.0708 Y23.8412 E1.55287
G1 X19.3363 Y22.8217 E1.57545
G1 X19.7389 Y21.6826 E1.60134
G1 X20.2359 Y20.5833 E1.62720
G1 X20.8245 Y19.5294 E1.65308
G1 X21.5019 Y18.5270 E1.67901
G1 X22.3660 Y17.4778 E1.70814
G1 X23.0955 Y16.7170 E1.73074
G1 X24.0010 Y15.9199 E1.75659
G1 X24.9725 Y15.2013 E1.78249
G1 X26.0011 Y14.5680 E1.80839
G1 X27.0776 Y14.0251 E1.83423
G1 X28.1996 Y13.5745 E1.86015
G1 X29.3553 Y13.2204 E1.88605
G1 X30.6862 Y12.9470 E1.91518
G1 X30.6091 Y12.4852 F10800 ;  Move Only (0.47 mm)
G1 X30.6862 Y12.9468 ;  Move Only (0.47 mm)
G1 X30.7689 Y12.6040 ;  Move Only (0.35 mm)
G1 X30.8175 Y12.5756 E1.91638 F1384
G1 X31.0830 Y12.4542 E1.92264
G1 X31.3674 Y12.3883 E1.92890
G1 X31.6908 Y12.3469 E1.93589
G1 X32.9381 Y12.2939 E1.96265
G1 X34.1852 Y12.3469 E1.98940
G1 X35.4213 Y12.5050 E2.01611
G1 X36.6405 Y12.7677 E2.04285
G1 X37.8319 Y13.1325 E2.06955
G1 X38.9897 Y13.5978 E2.09630
G1 X40.1047 Y14.1599 E2.12306
G1 X41.1656 Y14.8132 E2.14977
G1 X42.1698 Y15.5560 E2.17654
G1 X43.1043 Y16.3786 E2.20323
G1 X43.9681 Y17.2798 E2.22999
G1 X44.7505 Y18.2489 E2.25668
G1 X45.4526 Y19.2875 E2.28355
G1 X46.1222 Y20.5134 E2.31350
G1 X46.5720 Y21.5086 E2.33690
G1 X46.9873 Y22.6840 E2.36362
G1 X47.3020 Y23.8919 E2.39038
G1 X47.5124 Y25.1202 E2.41709
G1 X47.6183 Y26.3642 E2.44385
G1 Y27.6100 E2.47056
G1 X47.5118 Y28.8573 E2.49739
G1 X47.2623 Y30.2342 E2.52738
G1 X46.9876 Y31.2896 E2.55076
G1 X46.5716 Y32.4667 E2.57752
G1 X46.0584 Y33.6013 E2.60421
G1 X45.4501 Y34.6908 E2.63096
G1 X44.7511 Y35.7243 E2.65770
G1 X43.9681 Y36.6944 E2.68442
G1 X43.1043 Y37.5956 E2.71118
G1 X42.1698 Y38.4182 E2.73786
G1 X41.1656 Y39.1610 E2.76464
G1 X40.1043 Y39.8149 E2.79136
G1 X38.9896 Y40.3762 E2.81811
G1 X37.8327 Y40.8415 E2.84484
G1 X36.6405 Y41.2066 E2.87156
G1 X35.4214 Y41.4693 E2.89829
G1 X34.1852 Y41.6274 E2.92501
G1 X32.9381 Y41.6802 E2.95176
G1 X31.6908 Y41.6274 E2.97852
G1 X30.4546 Y41.4693 E3.00523
G1 X29.2355 Y41.2066 E3.03196
G1 X28.0434 Y40.8415 E3.05869
G1 X26.8865 Y40.3763 E3.08542
G1 X25.7718 Y39.8149 E3.11217
G1 X24.7105 Y39.1610 E3.13889
G1 X23.7063 Y38.4182 E3.16566
G1 X22.7719 Y37.5956 E3.19235
G1 X21.9085 Y36.6949 E3.21909
G1 X21.1249 Y35.7246 E3.24582
G1 X20.4235 Y34.6868 E3.27267
G1 X19.7545 Y33.4621 E3.30258
G1 X19.3039 Y32.4646 E3.32604
G1 X18.8889 Y31.2903 E3.35274
G1 X18.5741 Y30.0823 E3.37950
G1 X18.3635 Y28.8540 E3.40621
G1 X18.2579 Y27.6102 E3.43297
G1 Y26.3640 E3.45968
G1 X18.3643 Y25.1168 E3.48651
G1 X18.6134 Y23.7406 E3.51649
G1 X18.8885 Y22.6846 E3.53988
G1 X19.3045 Y21.5082 E3.56662
G1 X19.8182 Y20.3718 E3.59335
G1 X20.4254 Y19.2845 E3.62005
G1 X21.1268 Y18.2465 E3.64690
G1 X22.0162 Y17.1667 E3.67689
G1 X22.7718 Y16.3788 E3.70028
G1 X23.7070 Y15.5555 E3.72699
G1 X24.7097 Y14.8137 E3.75373
G1 X25.7729 Y14.1591 E3.78049
G1 X26.8842 Y13.5986 E3.80717
G1 X28.0441 Y13.1329 E3.83396
G1 X29.2397 Y12.7665 E3.86076
G1 X30.1507 Y12.5794 E3.88070
G1 X30.3733 Y12.3923 E3.88693
G1 X30.3044 Y12.1167 F10800 ;  Move Only (0.28 mm)
G1 X30.1699 Y11.8664 ;  Move Only (0.28 mm)
G1 X29.8428 Y11.6105 ;  Move Only (0.42 mm)
G1 X29.7990 Y11.6077 E3.88787 F1489
G1 X29.4401 Y11.6114 E3.89556
G1 X29.0857 Y11.6680 E3.90326
G1 X28.6983 Y11.7598 E3.91179
G1 X27.5319 Y12.1338 E3.93804
G1 X26.3965 Y12.5978 E3.96433
G1 X25.3011 Y13.1478 E3.99061
G1 X24.2527 Y13.7806 E4.01686
G1 X23.2547 Y14.4939 E4.04315
G1 X22.3152 Y15.2821 E4.06944
G1 X21.4415 Y16.1391 E4.09567
G1 X20.6361 Y17.0618 E4.12192
G1 X19.9014 Y18.0489 E4.14830
G1 X19.2494 Y19.0829 E4.17450
G1 X18.6785 Y20.1669 E4.20076
G1 X18.1917 Y21.2957 E4.22711
G1 X17.7957 Y22.4525 E4.25332
G1 X17.4891 Y23.6432 E4.27967
G1 X17.2771 Y24.8455 E4.30584
G1 X17.1586 Y26.0634 E4.33207
G1 X17.1437 Y27.4525 E4.36184
G1 X17.2057 Y28.5170 E4.38470
G1 X17.3716 Y29.7327 E4.41100
G1 X17.6310 Y30.9301 E4.43726
G1 X17.9830 Y32.1056 E4.46356
G1 X18.4229 Y33.2454 E4.48975
G1 X18.9529 Y34.3533 E4.51607
G1 X19.5657 Y35.4154 E4.54236
G1 X20.2598 Y36.4275 E4.56866
G1 X21.0293 Y37.3813 E4.59493
G1 X21.8679 Y38.2700 E4.62112
G1 X22.7783 Y39.0960 E4.64747
G1 X23.7463 Y39.8464 E4.67372
G1 X24.7713 Y40.5208 E4.70002
G1 X25.8446 Y41.1128 E4.72630
G1 X26.9589 Y41.6194 E4.75253
G1 X28.1148 Y42.0401 E4.77890
G1 X29.2900 Y42.3673 E4.80505
G1 X30.4974 Y42.6044 E4.83142
G1 X31.7116 Y42.7463 E4.85763
G1 X32.9381 Y42.7939 E4.88393
G1 X34.1644 Y42.7463 E4.91024
G1 X35.3788 Y42.6044 E4.93645
G1 X36.5858 Y42.3673 E4.96281
G1 X37.7612 Y42.0401 E4.98896
G1 X38.9171 Y41.6194 E5.01533
G1 X40.0314 Y41.1128 E5.04157
G1 X41.1060 Y40.5200 E5.06787
G1 X42.1265 Y39.8487 E5.09406
G1 X43.2158 Y38.9892 E5.12380
G1 X44.0081 Y38.2700 E5.14673
G1 X44.8462 Y37.3819 E5.17291
G1 X45.6167 Y36.4267 E5.19921
G1 X46.3109 Y35.4145 E5.22552
G1 X46.9232 Y34.3533 E5.25178
G1 X47.4517 Y33.2483 E5.27804
G1 X47.8938 Y32.1036 E5.30434
G1 X48.2453 Y30.9297 E5.33061
G1 X48.5045 Y29.7319 E5.35687
G1 X48.6704 Y28.5176 E5.38314
G1 X48.7416 Y27.2925 E5.40945
G1 X48.7176 Y26.0710 E5.43564
G1 X48.5712 Y24.6886 E5.46543
G1 X48.3870 Y23.6432 E5.48819
G1 X48.0803 Y22.4522 E5.51455
G1 X47.6843 Y21.2954 E5.54075
G1 X47.1991 Y20.1698 E5.56703
G1 X46.5433 Y18.9507 E5.59670
G1 X45.9746 Y18.0489 E5.61955
G1 X45.2404 Y17.0626 E5.64591
G1 X44.4347 Y16.1392 E5.67217
G1 X43.5607 Y15.2822 E5.69841
G1 X42.6213 Y14.4939 E5.72470
G1 X41.6218 Y13.7796 E5.75103
G1 X40.5755 Y13.1480 E5.77723
G1 X39.4800 Y12.5980 E5.80350
G1 X38.3453 Y12.1341 E5.82978
G1 X37.0240 Y11.7232 E5.85944
G1 X35.9825 Y11.4766 E5.88238
G1 X34.7726 Y11.2872 E5.90863
G1 X33.5517 Y11.1922 E5.93488
G1 X32.3244 E5.96118
G1 X31.1037 Y11.2872 E5.98743
G1 X30.1135 Y11.4422 E6.00891
G1 X29.9447 Y11.4031 E6.01262
G1 X29.9139 Y11.3558 F10800 ;  Move Only (0.056 mm)
G1 X29.8276 Y11.1433 ;  Move Only (0.23 mm)
G1 X29.8028 Y11.0173 ;  Move Only (0.13 mm)
G1 X28.5731 Y11.3087 E6.03971 F1533
G1 X29.8028 Y11.0173 F10800 ;  Move Only (1.3 mm)
G1 X28.5731 Y11.3087 E6.06680 F1533
G1 X27.3723 Y11.6937 E6.09383
G1 X26.2026 Y12.1717 E6.12091
G1 X25.0760 Y12.7374 E6.14794
G1 X23.9949 Y13.3899 E6.17500
G1 X22.9682 Y14.1236 E6.20205
G1 X22.0010 Y14.9353 E6.22912
G1 X21.1002 Y15.8188 E6.25616
G1 X20.2709 Y16.7688 E6.28319
G1 X19.5160 Y17.7831 E6.31029
G1 X18.8440 Y18.8491 E6.33730
G1 X18.2555 Y19.9663 E6.36437
G1 X17.7555 Y21.1258 E6.39143
G1 X17.3472 Y22.3185 E6.41846
G1 X17.0318 Y23.5431 E6.44556
G1 X16.8131 Y24.7836 E6.47256
G1 X16.6910 Y26.0393 E6.49960
G1 X16.6758 Y27.4637 E6.53014
G1 X16.7398 Y28.5630 E6.55374
G1 X16.9106 Y29.8137 E6.58080
G1 X17.1775 Y31.0462 E6.60783
G1 X17.5400 Y32.2569 E6.63492
G1 X17.9935 Y33.4318 E6.66191
G1 X18.5391 Y34.5722 E6.68901
G1 X19.1694 Y35.6645 E6.71604
G1 X19.8842 Y36.7067 E6.74313
G1 X20.6761 Y37.6885 E6.77017
G1 X21.5411 Y38.6052 E6.79718
G1 X22.4769 Y39.4543 E6.82427
G1 X23.4750 Y40.2279 E6.85133
G1 X24.5289 Y40.9212 E6.87837
G1 X25.6341 Y41.5310 E6.90543
G1 X26.7825 Y42.0530 E6.93247
G1 X27.9697 Y42.4852 E6.95955
G1 X29.1838 Y42.8232 E6.98656
G1 X30.4239 Y43.0667 E7.01365
G1 X31.6760 Y43.2130 E7.04067
G1 X32.9381 Y43.2620 E7.06774
G1 X34.2002 Y43.2130 E7.09482
G1 X35.4522 Y43.0667 E7.12184
G1 X36.6922 Y42.8232 E7.14892
G1 X37.9063 Y42.4852 E7.17594
G1 X39.0935 Y42.0530 E7.20302
G1 X40.2420 Y41.5310 E7.23006
G1 X41.3473 Y40.9212 E7.25712
G1 X42.4008 Y40.2282 E7.28415
G1 X43.5184 Y39.3463 E7.31466
G1 X44.3350 Y38.6052 E7.33830
G1 X45.2000 Y37.6885 E7.36531
G1 X45.9920 Y36.7067 E7.39235
G1 X46.7066 Y35.6645 E7.41944
G1 X47.3376 Y34.5713 E7.44649
G1 X47.8816 Y33.4339 E7.47352
G1 X48.3366 Y32.2558 E7.50059
G1 X48.6987 Y31.0462 E7.52765
G1 X48.9655 Y29.8137 E7.55468
G1 X49.1363 Y28.5630 E7.58174
G1 X49.2098 Y27.3018 E7.60882
G1 X49.1851 Y26.0420 E7.63583
G1 X49.0351 Y24.6248 E7.66637
G1 X48.8444 Y23.5431 E7.68992
G1 X48.5289 Y22.3185 E7.71702
G1 X48.1206 Y21.1257 E7.74405
G1 X47.6211 Y19.9669 E7.77109
G1 X46.9470 Y18.7140 E7.80159
G1 X46.3601 Y17.7831 E7.82518
G1 X45.6056 Y16.7694 E7.85226
G1 X44.7754 Y15.8181 E7.87933
G1 X43.8751 Y14.9353 E7.90635
G1 X42.9079 Y14.1236 E7.93342
G1 X41.8803 Y13.3892 E7.96049
G1 X40.8013 Y12.7379 E7.98751
G1 X39.6736 Y12.1717 E8.01455
G1 X38.5044 Y11.6939 E8.04163
G1 X37.1461 Y11.2715 E8.07212
G1 X36.0730 Y11.0172 E8.09576
G1 X34.8276 Y10.8223 E8.12278
G1 X33.5696 Y10.7246 E8.14982
G1 X32.3066 E8.17689
G1 X31.0486 Y10.8223 E8.20394
G1 X29.8028 Y11.0173 E8.23097
G1 X31.1668 Y19.4169 F10800 ;  Move Only (8.5 mm)
G1 X29.8028 Y11.0173 ;  Move Only (8.5 mm)
G1 X31.1217 Y19.1394 ;  Move Only (8.2 mm)
G1 X31.0762 Y19.3587 ;  Move Only (0.22 mm)
G1 X31.0143 Y19.4041 E8.23261 F1200
G1 X30.7537 Y19.5304 E8.23882
G1 X30.5975 Y19.5733 E8.24229
G1 X29.4889 Y20.0201 E8.26791
G1 X28.4662 Y20.6280 E8.29341
G1 X27.4942 Y21.4408 E8.32057
G1 X26.7524 Y22.2775 E8.34454
G1 X26.4151 Y22.7570 E8.35711
G1 X25.8440 Y23.8067 E8.38272
G1 X25.4421 Y24.9265 E8.40822
G1 X25.2095 Y26.1711 E8.43536
G1 X25.1697 Y27.2838 E8.45923
G1 X25.3235 Y28.5410 E8.48637
G1 X25.6216 Y29.6152 E8.51027
G1 X26.1085 Y30.7012 E8.53578
G1 X26.7553 Y31.6998 E8.56128
G1 X27.5510 Y32.5929 E8.58692
G1 X27.9863 Y32.9810 E8.59942
G1 X28.9655 Y33.6697 E8.62508
G1 X30.0374 Y34.2005 E8.65072
G1 X30.5869 Y34.3977 E8.66323
G1 X31.7554 Y34.6711 E8.68896
G1 X32.4137 Y34.7415 E8.70315
G1 X33.5328 Y34.7385 E8.72714
G1 X34.7084 Y34.5568 E8.75263
G1 X35.9143 Y34.1663 E8.77980
G1 X36.9100 Y33.6700 E8.80365
G1 X37.8848 Y32.9846 E8.82919
G1 X38.7412 Y32.1599 E8.85468
G1 X39.5060 Y31.1427 E8.88195
G1 X39.7672 Y30.7030 E8.89292
G1 X40.0593 Y30.1003 E8.90727
G1 X40.4342 Y29.0485 E8.93121
G1 X40.6621 Y27.8723 E8.95689
G1 X40.7069 Y27.2915 E8.96937
G1 X40.6611 Y26.0957 E8.99502
G1 X40.4342 Y24.9268 E9.02055
G1 X40.0303 Y23.8019 E9.04616
G1 X39.7708 Y23.2780 E9.05870
G1 X39.1206 Y22.2740 E9.08434
G1 X38.3262 Y21.3829 E9.10992
G1 X37.8288 Y20.9469 E9.12410
G1 X36.9108 Y20.3047 E9.14812
G1 X35.8387 Y19.7739 E9.17376
G1 X35.2893 Y19.5766 E9.18627
G1 X34.1243 Y19.3039 E9.21192
G1 X32.9381 Y19.2129 E9.23742
G1 X31.7458 Y19.3045 E9.26305
G1 X31.1668 Y19.4169 E9.27569
G1 X31.2741 Y19.8727 F10800 ;  Move Only (0.47 mm)
G1 X31.1668 Y19.4169 ;  Move Only (0.47 mm)
G1 X31.2145 Y19.6195 ;  Move Only (0.21 mm)
G1 X31.1839 Y19.8191 ;  Move Only (0.2 mm)
G1 X31.1316 Y19.8590 E9.27710 F1200
G1 X30.8919 Y19.9776 E9.28283
G1 X30.7474 Y20.0173 E9.28604
G1 X29.6968 Y20.4406 E9.31032
G1 X28.7371 Y21.0111 E9.33425
G1 X27.8211 Y21.7769 E9.35985
G1 X27.1202 Y22.5678 E9.38250
G1 X26.8134 Y23.0038 E9.39392
G1 X26.2718 Y23.9990 E9.41821
G1 X25.8950 Y25.0495 E9.44213
G1 X25.6759 Y26.2219 E9.46770
G1 X25.6386 Y27.2643 E9.49005
G1 X25.7834 Y28.4488 E9.51563
G1 X26.0630 Y29.4562 E9.53804
G1 X26.5207 Y30.4768 E9.56202
G1 X27.1286 Y31.4154 E9.58599
G1 X27.8829 Y32.2622 E9.61029
G1 X28.2767 Y32.6134 E9.62161
G1 X29.2054 Y33.2664 E9.64594
G1 X30.2215 Y33.7696 E9.67024
G1 X30.7183 Y33.9480 E9.68156
G1 X31.8341 Y34.2090 E9.70612
G1 X32.4380 Y34.2736 E9.71914
G1 X33.4962 Y34.2706 E9.74182
G1 X34.6002 Y34.1000 E9.76577
G1 X35.7366 Y33.7321 E9.79137
G1 X36.6697 Y33.2671 E9.81371
G1 X37.5862 Y32.6227 E9.83773
G1 X38.3895 Y31.8490 E9.86164
G1 X39.1169 Y30.8818 E9.88758
G1 X39.3544 Y30.4818 E9.89755
G1 X39.6282 Y29.9169 E9.91100
G1 X39.9815 Y28.9258 E9.93356
G1 X40.1978 Y27.8090 E9.95794
G1 X40.2383 Y27.2832 E9.96924
G1 X40.1951 Y26.1493 E9.99356
G1 X39.9818 Y25.0511 E10.01754
G1 X39.5992 Y23.9856 E10.04181
G1 X39.3634 Y23.5097 E10.05319
G1 X38.7474 Y22.5585 E10.07749
G1 X37.9962 Y21.7159 E10.10168
G1 X37.5398 Y21.3157 E10.11469
G1 X36.6710 Y20.7079 E10.13742
G1 X35.6553 Y20.2050 E10.16171
G1 X35.1565 Y20.0258 E10.17307
G1 X34.0525 Y19.7673 E10.19738
G1 X32.9381 Y19.6819 E10.22133
G1 X31.8090 Y19.7687 E10.24561
G1 X31.7335 Y19.7834 E10.24726
G1 X31.5232 Y19.9631 E10.25319
G1 X31.6019 Y20.2212 F10800 ;  Move Only (0.27 mm)
G1 X31.7437 Y20.4506 ;  Move Only (0.27 mm)
G1 X31.7748 Y20.4890 ;  Move Only (0.049 mm)
G1 X32.1154 Y20.7504 ;  Move Only (0.43 mm)
G1 X32.2140 Y20.7690 E10.25534 F1200
G1 X32.5387 Y20.8109 E10.26235
G1 X32.8662 Y20.8147 E10.26937
G1 X33.2278 Y20.7976 E10.27713
G1 X34.3780 Y20.9605 E10.30203
G1 X35.4760 Y21.3348 E10.32690
G1 X36.4848 Y21.9067 E10.35175
G1 X37.3702 Y22.6574 E10.37664
G1 X38.0883 Y23.5457 E10.40112
G1 X38.4054 Y24.0752 E10.41435
G1 X38.8484 Y25.1277 E10.43883
G1 X39.0917 Y26.2629 E10.46371
G1 X39.1189 Y27.4226 E10.48858
G1 X38.9295 Y28.5670 E10.51344
G1 X38.5296 Y29.6566 E10.53832
G1 X37.9339 Y30.6522 E10.56319
G1 X37.1621 Y31.5202 E10.58808
G1 X36.2436 Y32.2279 E10.61294
G1 X35.2085 Y32.7525 E10.63781
G1 X34.0938 Y33.0745 E10.66268
G1 X32.9554 Y33.1815 E10.68719
G1 X32.3406 Y33.1528 E10.70038
G1 X31.2176 Y32.9396 E10.72488
G1 X30.1379 Y32.5145 E10.74975
G1 X29.1563 Y31.8953 E10.77463
G1 X28.3075 Y31.1044 E10.79950
G1 X27.6213 Y30.1692 E10.82436
G1 X27.1209 Y29.1213 E10.84925
G1 X26.8249 Y27.9996 E10.87412
G1 X26.7436 Y26.8412 E10.89901
G1 X26.8793 Y25.6899 E10.92386
G1 X27.2277 Y24.5819 E10.94875
G1 X27.7760 Y23.5601 E10.97361
G1 X28.5055 Y22.6576 E10.99848
G1 X29.3910 Y21.9069 E11.02337
G1 X30.3844 Y21.3433 E11.04785
G1 X30.9578 Y21.1176 E11.06106
G1 X31.8523 Y20.9041 E11.08077
G1 X32.0142 Y20.9339 E11.08430
G1 X32.0393 Y20.9742 F10800 ;  Move Only (0.047 mm)
G1 X32.0966 Y21.1321 ;  Move Only (0.17 mm)
G1 X32.1262 Y21.2505 ;  Move Only (0.12 mm)
G1 X32.1356 Y21.3174 ;  Move Only (0.068 mm)
G1 X33.2061 Y21.2670 E11.10727 F1200
G1 X32.1356 Y21.3174 F10800 ;  Move Only (1.1 mm)
G1 X33.2061 Y21.2670 E11.13024 F1200
G1 X34.2685 Y21.4176 E11.15324
G1 X35.2838 Y21.7634 E11.17623
G1 X36.2161 Y22.2921 E11.19920
G1 X37.0342 Y22.9857 E11.22219
G1 X37.7039 Y23.8140 E11.24502
G1 X37.9870 Y24.2868 E11.25684
G1 X38.4003 Y25.2690 E11.27968
G1 X38.6251 Y26.3177 E11.30267
G1 X38.6502 Y27.3896 E11.32565
G1 X38.4751 Y28.4472 E11.34862
G1 X38.1055 Y29.4545 E11.37162
G1 X37.5550 Y30.3745 E11.39460
G1 X36.8421 Y31.1763 E11.41760
G1 X35.9929 Y31.8306 E11.44058
G1 X35.0362 Y32.3153 E11.46357
G1 X34.0060 Y32.6130 E11.48655
G1 X32.9447 Y32.7128 E11.50940
G1 X32.3952 Y32.6870 E11.52119
G1 X31.3482 Y32.4883 E11.54404
G1 X30.3503 Y32.0954 E11.56702
G1 X29.4432 Y31.5232 E11.59001
G1 X28.6587 Y30.7921 E11.61300
G1 X28.0244 Y29.9277 E11.63598
G1 X27.5622 Y28.9595 E11.65898
G1 X27.2887 Y27.9228 E11.68196
G1 X27.2134 Y26.8526 E11.70495
G1 X27.3388 Y25.7878 E11.72793
G1 X27.6605 Y24.7648 E11.75092
G1 X28.1674 Y23.8201 E11.77390
G1 X28.8419 Y22.9857 E11.79690
G1 X29.6600 Y22.2921 E11.81989
G1 X30.5864 Y21.7667 E11.84272
G1 X31.0987 Y21.5649 E11.85452
G1 X32.1356 Y21.3174 E11.87737
; Infill
G1 X31.0987 Y21.5649 F10800 ;  Move Only (1.1 mm)
G1 X32.1356 Y21.3174 ;  Move Only (1.1 mm)
G1 X31.0987 Y21.5649 ;  Move Only (1.1 mm)
G1 X30.5864 Y21.7667 ;  Move Only (0.55 mm)
G1 X29.6600 Y22.2921 ;  Move Only (1.1 mm)
G1 X28.8419 Y22.9857 ;  Move Only (1.1 mm)
G1 X28.1674 Y23.8201 ;  Move Only (1.1 mm)
G1 X27.6605 Y24.7648 ;  Move Only (1.1 mm)
G1 X27.4596 Y25.4035 ;  Move Only (0.67 mm)
G1 X27.2603 Y25.6532 ;  Move Only (0.32 mm)
G1 X27.1532 Y25.6703 ;  Move Only (0.11 mm)
G1 X26.7385 Y25.6596 ;  Move Only (0.41 mm)
G1 X26.5897 Y25.5587 ;  Move Only (0.18 mm)
G1 X26.5854 Y25.2059 E11.88596 F5400
G1 X26.7757 Y24.1623 E11.91177
G1 X26.9140 Y23.7272 E11.92288
G1 X27.1575 Y23.3409 E11.93399
G1 X28.2465 Y22.0212 E11.97564
G1 X28.5800 Y21.7100 E11.98674
G1 X28.9823 Y21.4950 E11.99784
G1 X32.3185 Y20.2364 E12.08461
G1 X32.7588 Y20.1491 E12.09553
G1 X33.2035 Y20.2094 E12.10646
G1 X36.5213 Y21.2344 E12.19096
G1 X36.9249 Y21.4338 E12.20192
G1 X37.2459 Y21.7495 E12.21287
G1 X39.2181 Y24.4280 E12.29382
G1 X39.4245 Y24.8283 E12.30478
G1 X39.4956 Y25.2729 E12.31574
G1 Y28.7058 E12.39928
G1 X39.4327 Y29.1558 E12.41034
G1 X39.2487 Y29.5714 E12.42140
G1 X38.0577 Y31.4890 E12.47634
G1 X37.7732 Y31.8493 E12.48751
G1 X37.4153 Y32.1368 E12.49868
G1 X35.6791 Y33.2352 E12.54868
G1 X35.2668 Y33.4413 E12.55990
G1 X34.8217 Y33.5609 E12.57111
G1 X33.2183 Y33.8229 E12.61065
G1 X32.7575 Y33.8546 E12.62189
G1 X32.2988 Y33.8001 E12.63313
G1 X30.6868 Y33.4540 E12.67326
G1 X30.2496 Y33.3104 E12.68446
G1 X29.8522 Y33.0784 E12.69565
G1 X28.0790 Y31.7737 E12.74923
G1 X27.7528 Y31.4568 E12.76030
G1 X27.5244 Y31.0634 E12.77137
G1 X27.0372 Y29.8758 E12.80261
G1 X26.7797 Y29.5818 E12.81212
G1 X26.7616 Y29.5783 F10800 ;  Move Only (0.018 mm)
G1 X26.3953 Y29.5381 ;  Move Only (0.37 mm)
G1 X26.0273 Y29.5587 ;  Move Only (0.37 mm)
G1 X25.6299 Y29.6436 ;  Move Only (0.41 mm)
G1 X25.2488 Y29.7848 ;  Move Only (0.41 mm)
G1 X20.1646 Y32.0969 ;  Move Only (5.6 mm)
G1 X19.8192 Y32.1011 ;  Move Only (0.35 mm)
G1 X19.6133 Y31.8307 ;  Move Only (0.34 mm)
G1 X19.4675 Y31.5236 ;  Move Only (0.34 mm)
G1 X19.2666 Y31.2392 ;  Move Only (0.35 mm)
G1 X19.1721 Y31.1987 ;  Move Only (0.1 mm)
G1 X18.9421 Y31.1182 ;  Move Only (0.24 mm)
G1 X18.7033 Y31.0700 ;  Move Only (0.24 mm)
G1 X18.5549 Y31.1300 ;  Move Only (0.16 mm)
G1 X18.5856 Y31.4380 E12.81965 F5400
G1 X19.9572 Y35.1238 E12.91536
G1 X20.1654 Y35.5325 E12.92652
G1 X20.4613 Y35.8830 E12.93768
G1 X24.8339 Y39.9952 E13.08376
G1 X25.2008 Y40.2724 E13.09495
G1 X25.6185 Y40.4647 E13.10614
G1 X30.6279 Y42.1458 E13.23473
G1 X31.0774 Y42.2487 E13.24595
G1 X31.5384 Y42.2613 E13.25717
G1 X36.5016 Y41.9057 E13.37827
G1 X36.9571 Y41.8298 E13.38951
G1 X37.3906 Y41.6703 E13.40075
G1 X41.6006 Y39.6558 E13.51433
G1 X41.9955 Y39.4172 E13.52556
G1 X42.3367 Y39.1067 E13.53678
G1 X45.9209 Y35.1445 E13.66680
G1 X46.2002 Y34.7757 E13.67806
G1 X46.4115 Y34.3640 E13.68932
G1 X47.7429 Y31.0989 E13.77514
G1 X47.8750 Y30.6568 E13.78637
G1 X47.9196 Y30.1975 E13.79760
G1 Y23.7969 E13.95336
G1 X47.8697 Y23.3399 E13.96455
G1 X47.7223 Y22.9045 E13.97573
G1 X45.5897 Y18.3180 E14.09883
G1 X45.3587 Y17.9172 E14.11009
G1 X45.0614 Y17.5628 E14.12134
G1 X42.3538 Y14.8570 E14.21450
G1 X42.0014 Y14.5556 E14.22578
G1 X41.6066 Y14.3122 E14.23707
G1 X38.2270 Y12.5739 E14.32956
G1 X37.7992 Y12.3955 E14.34084
G1 X37.3485 Y12.2873 E14.35212
G1 X33.2187 Y11.6391 E14.45385
G1 X32.7575 Y11.6092 E14.46510
G1 X32.2985 Y11.6633 E14.47635
G1 X27.3175 Y12.7160 E14.60024
G1 X26.8780 Y12.8556 E14.61146
G1 X26.4746 Y13.0789 E14.62268
G1 X22.1902 Y16.0404 E14.74943
G1 X21.8401 Y16.3397 E14.76064
G1 X21.5585 Y16.7042 E14.77185
G1 X18.6823 Y21.3411 E14.90464
G1 X18.4835 Y21.7557 E14.91583
G1 X18.3785 Y22.2033 E14.92702
G1 X17.6503 Y28.1233 E15.07217
G1 X17.6201 Y28.0884 E15.07330
G1 X17.8300 Y24.1896 E15.16832
G1 X17.9854 Y23.8739 E15.17688
G1 X18.3247 Y23.8033 F10800 ;  Move Only (0.35 mm)
G1 X18.6712 Y23.8021 ;  Move Only (0.35 mm)
G1 X18.9860 Y23.7197 ;  Move Only (0.33 mm)
G1 X18.9946 Y23.7075 ;  Move Only (0.015 mm)
G1 X19.1470 Y23.4412 ;  Move Only (0.31 mm)
G1 X19.2502 Y23.1522 ;  Move Only (0.31 mm)
G1 X19.3363 Y22.8217 ;  Move Only (0.34 mm)
G1 X19.7389 Y21.6826 ;  Move Only (1.2 mm)
G1 X20.2359 Y20.5833 ;  Move Only (1.2 mm)
G1 X20.8245 Y19.5294 ;  Move Only (1.2 mm)
G1 X21.5019 Y18.5270 ;  Move Only (1.2 mm)
G1 X22.3660 Y17.4778 ;  Move Only (1.4 mm)
G1 X23.0955 Y16.7170 ;  Move Only (1.1 mm)
G1 X24.0010 Y15.9199 ;  Move Only (1.2 mm)
G1 X24.9725 Y15.2013 ;  Move Only (1.2 mm)
G1 X26.0011 Y14.5680 ;  Move Only (1.2 mm)
G1 X27.0776 Y14.0251 ;  Move Only (1.2 mm)
G1 X28.1996 Y13.5745 ;  Move Only (1.2 mm)
G1 X29.3553 Y13.2204 ;  Move Only (1.2 mm)
G1 X30.6862 Y12.9470 ;  Move Only (1.4 mm)
G1 X31.7310 Y12.8133 ;  Move Only (1.1 mm)
G1 X32.9381 Y12.7620 ;  Move Only (1.2 mm)
G1 X34.1451 Y12.8133 ;  Move Only (1.2 mm)
G1 X35.3422 Y12.9665 ;  Move Only (1.2 mm)
G1 X36.5224 Y13.2209 ;  Move Only (1.2 mm)
G1 X37.6763 Y13.5742 ;  Move Only (1.2 mm)
G1 X38.7974 Y14.0247 ;  Move Only (1.2 mm)
G1 X39.8760 Y14.5685 ;  Move Only (1.2 mm)
G1 X40.9036 Y15.2013 ;  Move Only (1.2 mm)
G1 X41.8752 Y15.9199 ;  Move Only (1.2 mm)
G1 X42.7807 Y16.7169 ;  Move Only (1.2 mm)
G1 X43.6165 Y17.5890 ;  Move Only (1.2 mm)
G1 X44.3746 Y18.5279 ;  Move Only (1.2 mm)
G1 X45.0524 Y19.5306 ;  Move Only (1.2 mm)
G1 X45.7036 Y20.7231 ;  Move Only (1.4 mm)
G1 X46.1374 Y21.6826 ;  Move Only (1.1 mm)
G1 X46.5397 Y22.8214 ;  Move Only (1.2 mm)
G1 X46.8442 Y23.9904 ;  Move Only (1.2 mm)
G1 X47.0481 Y25.1801 ;  Move Only (1.2 mm)
G1 X47.1505 Y26.3838 ;  Move Only (1.2 mm)
G1 Y27.1225 ;  Move Only (0.74 mm)
G1 X47.0123 Y27.4462 ;  Move Only (0.35 mm)
G1 X46.6773 Y27.5351 ;  Move Only (0.35 mm)
G1 X46.3313 Y27.5551 ;  Move Only (0.35 mm)
G1 X40.3311 Y27.2959 ;  Move Only (6 mm)
G1 X39.9766 Y27.4139 ;  Move Only (0.37 mm)
G1 X39.8229 Y27.7493 E15.18586 F5400
G1 X39.7326 Y28.1071 E15.19484
G1 X39.6818 Y28.4299 E15.20279
G1 X39.7484 Y28.7435 E15.21059
G1 X39.8372 Y28.8083 F10800 ;  Move Only (0.11 mm)
G1 X40.2106 Y28.9878 ;  Move Only (0.41 mm)
G1 X40.4342 Y29.0485 ;  Move Only (0.23 mm)
G1 X46.0973 Y31.0001 ;  Move Only (6 mm)
G1 X46.4432 Y30.9724 ;  Move Only (0.35 mm)
G1 X46.4853 Y30.9188 ;  Move Only (0.068 mm)
G1 X46.6319 Y30.6869 ;  Move Only (0.27 mm)
G1 X46.7280 Y30.4299 ;  Move Only (0.27 mm)
G1 X46.8053 Y30.1331 ;  Move Only (0.31 mm)
G1 X46.9643 Y29.2560 ;  Move Only (0.89 mm)
G1 X47.1409 Y29.0447 ;  Move Only (0.28 mm)
G1 X47.3983 Y29.1212 ;  Move Only (0.27 mm)
G1 X47.6275 Y29.2608 ;  Move Only (0.27 mm)
G1 X47.7702 Y29.3754 ;  Move Only (0.18 mm)
G1 X48.0269 Y29.4112 ;  Move Only (0.26 mm)
G1 X48.1478 Y29.1900 E15.21673 F5400
G1 X48.2056 Y28.9446 E15.22286
G1 X48.3671 Y27.2835 E15.26348
; Layer S1 ; Layer at Z=0.442 No=1, thickn=0.26, 1 skins, 4 polys, 2 shells, 4 fullfill polys, 0 bridge polys, 0 skin fullfill polys, 0 support polys, infill:  normal 102, full 5, support 0, skinfills 0 prev.No=0
M106 S199
; Shell
G1 X18.6235 Y18.7218 Z0.4420 F10800 ;  Z-Change Move Only (31 mm)
G1 X18.0259 Y19.8566 E15.29097 F3115
G1 X17.5180 Y21.0341 E15.31845
G1 X17.1035 Y22.2455 E15.34590
G1 X16.7829 Y23.4893 E15.37343
G1 X16.5609 Y24.7492 E15.40085
G1 X16.4367 Y26.0260 E15.42835
G1 X16.4117 Y27.3068 E15.45581
G1 X16.4864 Y28.5876 E15.48331
G1 X16.6600 Y29.8578 E15.51079
G1 X16.9310 Y31.1094 E15.53824
G1 X17.2990 Y32.3388 E15.56574
G1 X17.7602 Y33.5332 E15.59319
G1 X18.3133 Y34.6898 E15.62067
G1 X18.9549 Y35.8012 E15.64817
G1 X19.6797 Y36.8580 E15.67564
G1 X20.4850 Y37.8564 E15.70314
G1 X21.3630 Y38.7869 E15.73056
G1 X22.3132 Y39.6492 E15.75806
G1 X23.3271 Y40.4352 E15.78556
G1 X24.3974 Y41.1391 E15.81302
G1 X25.5199 Y41.7585 E15.84050
G1 X26.6862 Y42.2887 E15.86796
G1 X27.8921 Y42.7276 E15.89547
G1 X29.1252 Y43.0709 E15.92290
G1 X30.3844 Y43.3181 E15.95041
G1 X31.6563 Y43.4666 E15.97786
G1 X32.9381 Y43.5164 E16.00535
G1 X34.2197 Y43.4666 E16.03284
G1 X35.2168 Y43.3502 E16.05436
G1 X36.7528 Y43.0703 E16.08783
G1 X37.9840 Y42.7276 E16.11522
G1 X39.1900 Y42.2887 E16.14273
G1 X40.3562 Y41.7585 E16.17019
G1 X41.4788 Y41.1391 E16.19767
G1 X42.5490 Y40.4352 E16.22513
G1 X43.5629 Y39.6492 E16.25262
G1 X44.5131 Y38.7869 E16.28013
G1 X45.3911 Y37.8564 E16.30755
G1 X46.1965 Y36.8580 E16.33504
G1 X46.9208 Y35.8017 E16.36250
G1 X47.5634 Y34.6889 E16.39004
G1 X48.1160 Y33.5332 E16.41750
G1 X48.5772 Y32.3387 E16.44494
G1 X48.9449 Y31.1107 E16.47242
G1 X49.1579 Y30.1268 E16.49400
G1 X49.3898 Y28.5860 E16.52740
G1 X49.4643 Y27.3068 E16.55486
G1 X49.4395 Y26.0260 E16.58232
G1 X49.3153 Y24.7491 E16.60982
G1 X49.0931 Y23.4893 E16.63724
G1 X48.7727 Y22.2456 E16.66477
G1 X48.3582 Y21.0341 E16.69222
G1 X47.8502 Y19.8566 E16.71970
G1 X47.2526 Y18.7218 E16.74719
G1 X46.5693 Y17.6379 E16.77466
G1 X45.9700 Y16.8330 E16.79617
G1 X44.9591 Y15.6420 E16.82965
G1 X44.0461 Y14.7468 E16.85706
G1 X43.0639 Y13.9224 E16.88455
G1 X42.2459 Y13.3378 E16.90610
G1 X40.9215 Y12.5136 E16.93953
G1 X39.7788 Y11.9400 E16.96694
G1 X38.5907 Y11.4542 E16.99445
G1 X37.3716 Y11.0636 E17.02189
G1 X36.1218 Y10.7673 E17.04942
G1 X34.8571 Y10.5695 E17.07686
G1 X33.5795 Y10.4703 E17.10433
G1 X32.2967 E17.13182
G1 X31.0189 Y10.5695 E17.15930
G1 X30.0259 Y10.7248 E17.18084
G1 X28.5036 Y11.0638 E17.21427
G1 X27.2854 Y11.4542 E17.24169
G1 X26.0972 Y11.9400 E17.26920
G1 X24.9529 Y12.5145 E17.29665
G1 X24.0910 Y13.0346 E17.31823
G1 X22.8114 Y13.9231 E17.35162
G1 X21.8300 Y14.7468 E17.37908
G1 X20.9155 Y15.6434 E17.40653
G1 X20.0722 Y16.6098 E17.43402
G1 X19.3064 Y17.6386 E17.46151
G1 X18.6235 Y18.7218 E17.48896
G1 X19.0297 Y18.9546 F10800 ;  Move Only (0.47 mm)
G1 X18.6237 Y18.7219 ;  Move Only (0.47 mm)
G1 X18.8482 Y19.0073 ;  Move Only (0.36 mm)
G1 X18.7782 Y19.3586 E17.49664 F3027
G1 X18.6424 Y19.6900 E17.50432
G1 X18.4481 Y20.0589 E17.51325
G1 X17.9545 Y21.2033 E17.53997
G1 X17.5522 Y22.3785 E17.56659
G1 X17.2400 Y23.5901 E17.59341
G1 X17.0248 Y24.8112 E17.61999
G1 X16.9040 Y26.0529 E17.64673
G1 X16.8798 Y27.2973 E17.67341
G1 X16.9524 Y28.5426 E17.70014
G1 X17.1210 Y29.7763 E17.72683
G1 X17.3844 Y30.9930 E17.75352
G1 X17.7417 Y32.1865 E17.78022
G1 X18.1897 Y33.3471 E17.80689
G1 X18.7277 Y34.4719 E17.83361
G1 X19.3507 Y35.5510 E17.86032
G1 X20.0554 Y36.5787 E17.88703
G1 X20.8382 Y37.5492 E17.91376
G1 X21.6893 Y38.4510 E17.94033
G1 X22.6148 Y39.2910 E17.96712
G1 X23.6002 Y40.0550 E17.99385
G1 X24.6379 Y40.7376 E18.02047
G1 X25.7311 Y41.3406 E18.04724
G1 X26.8622 Y41.8548 E18.07387
G1 X28.0363 Y42.2823 E18.10065
G1 X29.2329 Y42.6154 E18.12727
G1 X30.4576 Y42.8558 E18.15403
G1 X31.6919 Y42.9998 E18.18066
G1 X32.9381 Y43.0483 E18.20739
G1 X34.1841 Y42.9998 E18.23412
G1 X35.1468 Y42.8875 E18.25490
G1 X36.6480 Y42.6138 E18.28760
G1 X37.8400 Y42.2820 E18.31413
G1 X39.0135 Y41.8550 E18.34089
G1 X40.1456 Y41.3404 E18.36755
G1 X41.2377 Y40.7379 E18.39428
G1 X42.2758 Y40.0550 E18.42092
G1 X43.2613 Y39.2910 E18.44765
G1 X44.1868 Y38.4510 E18.47444
G1 X45.0379 Y37.5492 E18.50101
G1 X45.8208 Y36.5786 E18.52774
G1 X46.5242 Y35.5526 E18.55441
G1 X47.1497 Y34.4694 E18.58122
G1 X47.6866 Y33.3467 E18.60789
G1 X48.1341 Y32.1875 E18.63453
G1 X48.4917 Y30.9936 E18.66124
G1 X48.6975 Y30.0420 E18.68211
G1 X48.9240 Y28.5381 E18.71471
G1 X48.9960 Y27.2974 E18.74135
G1 X48.9722 Y26.0527 E18.76803
G1 X48.8513 Y24.8112 E18.79477
G1 X48.6358 Y23.5897 E18.82136
G1 X48.3239 Y22.3790 E18.84815
G1 X47.9219 Y21.2037 E18.87478
G1 X47.4276 Y20.0579 E18.90153
G1 X46.8471 Y18.9557 E18.92823
G1 X46.1823 Y17.9018 E18.95494
G1 X45.6043 Y17.1251 E18.97569
G1 X44.6157 Y15.9605 E19.00843
G1 X43.7317 Y15.0936 E19.03497
G1 X42.7771 Y14.2926 E19.06168
G1 X41.9860 Y13.7271 E19.08253
G1 X40.6917 Y12.9216 E19.11520
G1 X39.5857 Y12.3665 E19.14173
G1 X38.4303 Y11.8940 E19.16848
G1 X37.2469 Y11.5149 E19.19512
G1 X36.0308 Y11.2266 E19.22191
G1 X34.8024 Y11.0343 E19.24856
G1 X33.5617 Y10.9381 E19.27523
G1 X32.3145 E19.30197
G1 X31.0735 Y11.0343 E19.32865
G1 X30.1119 Y11.1849 E19.34951
G1 X28.6266 Y11.5155 E19.38213
G1 X27.4459 Y11.8940 E19.40870
G1 X26.2903 Y12.3665 E19.43546
G1 X25.1789 Y12.9244 E19.46212
G1 X24.3454 Y13.4275 E19.48299
G1 X23.0965 Y14.2945 E19.51557
G1 X22.1439 Y15.0941 E19.54223
G1 X21.2568 Y15.9637 E19.56886
G1 X20.4364 Y16.9040 E19.59561
G1 X19.6923 Y17.9036 E19.62232
G1 X19.2793 Y18.5587 E19.63892
G1 X19.2482 Y18.8713 E19.64565
G1 X19.4974 Y19.0520 F10800 ;  Move Only (0.31 mm)
G1 X19.7814 Y19.1707 ;  Move Only (0.31 mm)
G1 X20.1921 Y19.2887 ;  Move Only (0.43 mm)
G1 X20.5900 Y19.2751 ;  Move Only (0.4 mm)
G1 X20.6184 Y19.2530 E19.64642 F2721
G1 X20.8832 Y19.0109 E19.65411
G1 X21.1069 Y18.7303 E19.66180
G1 X21.3300 Y18.4003 E19.67034
G1 X22.0989 Y17.4480 E19.69658
G1 X22.9472 Y16.5630 E19.72285
G1 X23.6787 Y15.9190 E19.74374
G1 X24.8473 Y15.0279 E19.77524
G1 X25.8961 Y14.3816 E19.80165
G1 X26.9905 Y13.8301 E19.82792
G1 X28.1288 Y13.3729 E19.85421
G1 X29.3004 Y13.0137 E19.88048
G1 X30.4974 Y12.7559 E19.90672
G1 X31.4629 Y12.6324 E19.92759
G1 X32.9322 Y12.5476 E19.95913
G1 X34.1638 Y12.6005 E19.98556
G1 X35.3784 Y12.7559 E20.01180
G1 X36.5758 Y13.0137 E20.03806
G1 X37.7472 Y13.3729 E20.06432
G1 X38.8871 Y13.8305 E20.09065
G1 X39.7543 Y14.2681 E20.11147
G1 X41.0184 Y15.0206 E20.14300
G1 X42.0100 Y15.7541 E20.16944
G1 X42.9289 Y16.5629 E20.19568
G1 X43.7767 Y17.4474 E20.22194
G1 X44.5463 Y18.4003 E20.24819
G1 X45.2338 Y19.4178 E20.27452
G1 X45.7080 Y20.2664 E20.29535
G1 X46.3341 Y21.5982 E20.32690
G1 X46.7439 Y22.7582 E20.35327
G1 X47.0532 Y23.9457 E20.37957
G1 X47.2598 Y25.1523 E20.40581
G1 X47.3639 Y26.3748 E20.43211
G1 Y27.5995 E20.45836
G1 X47.2598 Y28.8217 E20.48465
G1 X47.0532 Y30.0284 E20.51089
G1 X46.7439 Y31.2159 E20.53719
G1 X46.4195 Y32.1336 E20.55806
G1 X45.8338 Y33.4828 E20.58958
G1 X45.2339 Y34.5562 E20.61594
G1 X44.5463 Y35.5740 E20.64227
G1 X43.7767 Y36.5269 E20.66852
G1 X42.9288 Y37.4114 E20.69479
G1 X42.0100 Y38.2204 E20.72103
G1 X41.0229 Y38.9501 E20.74734
G1 X40.1940 Y39.4607 E20.76821
G1 X38.8914 Y40.1421 E20.79972
G1 X37.7470 Y40.6015 E20.82615
G1 X36.5761 Y40.9604 E20.85240
G1 X35.3784 Y41.2183 E20.87866
G1 X34.4131 Y41.3418 E20.89952
G1 X32.9437 Y41.4264 E20.93107
G1 X31.7123 Y41.3738 E20.95749
G1 X30.4976 Y41.2183 E20.98374
G1 X29.2999 Y40.9604 E21.01000
G1 X28.1292 Y40.6015 E21.03624
G1 X26.9905 Y40.1440 E21.06255
G1 X25.8955 Y39.5923 E21.08883
G1 X24.8530 Y38.9501 E21.11507
G1 X23.8663 Y38.2204 E21.14138
G1 X22.9477 Y37.4120 E21.16761
G1 X22.0990 Y36.5263 E21.19390
G1 X21.3300 Y35.5740 E21.22014
G1 X20.6424 Y34.5567 E21.24646
G1 X20.0448 Y33.4864 E21.27273
G1 X19.5407 Y32.3717 E21.29895
G1 X19.1319 Y31.2149 E21.32525
G1 X18.8233 Y30.0293 E21.35151
G1 X18.6163 Y28.8217 E21.37777
G1 X18.5117 Y27.5994 E21.40407
G1 Y26.3748 E21.43032
G1 X18.6163 Y25.1523 E21.45662
G1 X18.8233 Y23.9447 E21.48288
G1 X19.0690 Y23.0011 E21.50378
G1 X19.5380 Y21.6086 E21.53527
G1 X20.0451 Y20.4872 E21.56165
G1 X20.5332 Y19.6128 E21.58312
G1 X20.6659 Y19.5101 E21.58672
G1 X20.7163 Y19.5176 F10800 ;  Move Only (0.051 mm)
G1 X20.8739 Y19.5750 ;  Move Only (0.17 mm)
G1 X20.9836 Y19.6280 ;  Move Only (0.12 mm)
G1 X21.0409 Y19.6633 ;  Move Only (0.067 mm)
G1 X21.7061 Y18.6792 E21.61218 F2632
G1 X21.0409 Y19.6633 F10800 ;  Move Only (1.2 mm)
G1 X21.7061 Y18.6792 E21.63764 F2632
G1 X22.4506 Y17.7572 E21.66304
G1 X23.2709 Y16.9013 E21.68845
G1 X23.9757 Y16.2808 E21.70858
G1 X25.1130 Y15.4136 E21.73923
G1 X26.1242 Y14.7906 E21.76469
G1 X27.1834 Y14.2568 E21.79012
G1 X28.2844 Y13.8145 E21.81555
G1 X29.4181 Y13.4670 E21.84096
G1 X30.5768 Y13.2174 E21.86637
G1 X31.5068 Y13.0984 E21.88647
G1 X32.9358 Y13.0162 E21.91715
G1 X34.1235 Y13.0669 E21.94263
G1 X35.2993 Y13.2174 E21.96804
G1 X36.4582 Y13.4670 E21.99345
G1 X37.5918 Y13.8145 E22.01886
G1 X38.6937 Y14.2570 E22.04431
G1 X39.5293 Y14.6785 E22.06437
G1 X40.7593 Y15.4108 E22.09506
G1 X41.7153 Y16.1179 E22.12054
G1 X42.6046 Y16.9006 E22.14594
G1 X43.4257 Y17.7572 E22.17137
G1 X44.1702 Y18.6792 E22.19677
G1 X44.8348 Y19.6627 E22.22222
G1 X45.2918 Y20.4806 E22.24230
G1 X45.9007 Y21.7761 E22.27298
G1 X46.2963 Y22.8958 E22.29844
G1 X46.5954 Y24.0440 E22.32387
G1 X46.7955 Y25.2123 E22.34927
G1 X46.8962 Y26.3945 E22.37471
G1 Y27.5799 E22.40011
G1 X46.7955 Y28.7618 E22.42554
G1 X46.5954 Y29.9302 E22.45095
G1 X46.2963 Y31.0784 E22.47638
G1 X45.9839 Y31.9624 E22.49648
G1 X45.4140 Y33.2749 E22.52715
G1 X44.8349 Y34.3114 E22.55260
G1 X44.1702 Y35.2951 E22.57805
G1 X43.4257 Y36.2171 E22.60345
G1 X42.6046 Y37.0737 E22.62888
G1 X41.7153 Y37.8565 E22.65428
G1 X40.7611 Y38.5621 E22.67971
G1 X39.9624 Y39.0539 E22.69982
G1 X38.6953 Y39.7167 E22.73047
G1 X37.5914 Y40.1600 E22.75597
G1 X36.4585 Y40.5071 E22.78136
G1 X35.2993 Y40.7569 E22.80678
G1 X34.3693 Y40.8759 E22.82688
G1 X32.9402 Y40.9580 E22.85756
G1 X31.7526 Y40.9074 E22.88304
G1 X30.5768 Y40.7569 E22.90845
G1 X29.4177 Y40.5071 E22.93386
G1 X28.2847 Y40.1601 E22.95926
G1 X27.1834 Y39.7176 E22.98470
G1 X26.1242 Y39.1837 E23.01013
G1 X25.1150 Y38.5621 E23.03553
G1 X24.1609 Y37.8565 E23.06097
G1 X23.2715 Y37.0737 E23.08636
G1 X22.4506 Y36.2171 E23.11180
G1 X21.7061 Y35.2951 E23.13720
G1 X21.0412 Y34.3114 E23.16265
G1 X20.4633 Y33.2764 E23.18806
G1 X19.9750 Y32.1967 E23.21346
G1 X19.5797 Y31.0780 E23.23889
G1 X19.2810 Y29.9305 E23.26430
G1 X19.0806 Y28.7618 E23.28972
G1 X18.9798 Y27.5799 E23.31514
G1 Y26.3945 E23.34055
G1 X19.0806 Y25.2123 E23.36598
G1 X19.2810 Y24.0437 E23.39140
G1 X19.5175 Y23.1355 E23.41152
G1 X19.9739 Y21.7800 E23.44217
G1 X20.4635 Y20.6973 E23.46764
G1 X21.0409 Y19.6633 E23.49303
; Infill
G1 X20.3663 Y19.1573 F10800 ;  Move Only (0.84 mm)
G1 X21.0409 Y19.6633 ;  Move Only (0.84 mm)
G1 X20.5601 Y19.3027 ;  Move Only (0.6 mm)
G1 X20.3619 Y19.2299 ;  Move Only (0.21 mm)
G1 X20.2800 Y19.2493 E23.49508
G1 X20.0466 Y19.3419 E23.50119
G1 X19.9257 Y19.4117 E23.50458
G1 X19.3130 Y19.7654 ;  Move Only (0.71 mm)
G1 X19.3055 Y19.7697 E23.50479
G1 X19.0274 Y20.0665 E23.51469
G1 X18.9909 Y20.4682 ;  Move Only (0.4 mm)
G1 X19.0138 Y20.8710 ;  Move Only (0.4 mm)
G1 X19.0951 Y21.4919 ;  Move Only (0.63 mm)
G1 X19.0683 Y21.6532 ;  Move Only (0.16 mm)
G1 X19.0239 Y21.7006 E23.51627
G1 X18.8712 Y21.8218 E23.52102
G1 X18.7773 Y21.8760 E23.52366
G1 X18.2928 Y22.1557 ;  Move Only (0.56 mm)
G1 X18.0864 Y22.3981 E23.53140
G1 X18.1063 Y22.7123 ;  Move Only (0.31 mm)
G1 X18.1793 Y23.0186 ;  Move Only (0.31 mm)
G1 X18.4105 Y23.7176 ;  Move Only (0.74 mm)
G1 X18.4078 Y23.8424 ;  Move Only (0.12 mm)
G1 X18.3783 Y23.8770 E23.53251
G1 X18.2580 Y23.9772 E23.53632
G1 X18.1823 Y24.0209 E23.53845
G1 X17.7595 Y24.2650 ;  Move Only (0.49 mm)
G1 X17.5991 Y24.4687 E23.54476
G1 X17.6469 Y24.7199 ;  Move Only (0.26 mm)
G1 X17.7412 Y24.9577 ;  Move Only (0.26 mm)
G1 X18.1162 Y25.6904 ;  Move Only (0.82 mm)
G1 X18.1268 Y25.8049 ;  Move Only (0.12 mm)
G1 X18.1034 Y25.8347 E23.54568
G1 X17.9888 Y25.9339 E23.54937
G1 X17.9153 Y25.9764 E23.55143
G1 X17.5315 Y26.1980 ;  Move Only (0.44 mm)
G1 X17.3987 Y26.3770 E23.55686
G1 X17.5622 Y26.7817 ;  Move Only (0.44 mm)
G1 X18.0660 Y27.5368 ;  Move Only (0.91 mm)
G1 X18.0404 Y27.6466 E23.55823
G1 X17.9857 Y27.7202 E23.55990
G1 X17.9465 Y27.7552 E23.56102
G1 X17.9156 Y27.7775 E23.56189
G1 X17.8973 Y27.7881 E23.56241
G1 X17.5499 Y27.9887 ;  Move Only (0.4 mm)
G1 X17.4178 Y28.1613 E23.56770
G1 X17.5568 Y28.5645 ;  Move Only (0.43 mm)
G1 X18.0256 Y29.3662 ;  Move Only (0.93 mm)
G1 X18.1373 Y29.3958 E23.56910
G1 X18.2261 Y29.3840 E23.57074
G1 X18.2919 Y29.3616 E23.57222
G1 X18.3257 Y29.3421 E23.57317
G1 X17.7427 Y29.6787 ;  Move Only (0.67 mm)
G1 X17.6286 Y29.8364 E23.57790
G1 X17.7862 Y30.1830 ;  Move Only (0.38 mm)
G1 X18.3711 Y30.9732 ;  Move Only (0.98 mm)
G1 X18.4902 Y30.9979 E23.57938
G1 X18.5775 Y30.9839 E23.58100
G1 X18.6414 Y30.9612 E23.58244
G1 X18.6742 Y30.9422 E23.58337
G1 X18.5263 Y31.0276 ;  Move Only (0.17 mm)
G1 X18.2553 Y31.3239 ;  Move Only (0.4 mm)
G1 X18.2350 Y31.7214 E23.59305
G1 X18.2755 Y32.1173 E23.60274
G1 X18.3416 Y32.4828 E23.61178
G1 X18.5066 Y32.6966 E23.61835
G1 X18.5584 Y32.6942 ;  Move Only (0.052 mm)
G1 X18.8557 Y32.6075 ;  Move Only (0.31 mm)
G1 X19.0644 Y32.5183 ;  Move Only (0.23 mm)
G1 X19.2083 Y32.5762 E23.62024
G1 X19.5364 Y33.7075 E23.64890
G1 X19.5238 Y33.9593 E23.65504
G1 X19.4625 Y34.0299 ;  Move Only (0.094 mm)
G1 X19.2212 Y34.2290 ;  Move Only (0.31 mm)
G1 X19.1410 Y34.3346 ;  Move Only (0.13 mm)
G1 X19.2284 Y34.5794 E23.66136
G1 X19.7216 Y35.3989 E23.68464
G1 X19.9049 Y35.5357 E23.69021
G1 X19.9776 Y35.5258 ;  Move Only (0.073 mm)
G1 X20.2662 Y35.4271 ;  Move Only (0.31 mm)
G1 X20.4072 Y35.3986 ;  Move Only (0.14 mm)
G1 X20.6397 Y35.5613 E23.69712
G1 X21.2729 Y36.1786 E23.71863
G1 X21.3668 Y36.4469 E23.72555
G1 X21.3318 Y36.4997 ;  Move Only (0.063 mm)
G1 X21.1027 Y36.7149 ;  Move Only (0.31 mm)
G1 X20.9182 Y36.8520 ;  Move Only (0.23 mm)
G1 X20.9066 Y36.9961 E23.72731
G1 X21.9596 Y37.8560 E23.76040
G1 X22.1048 Y37.9145 E23.76421
G1 X22.1647 Y37.9010 ;  Move Only (0.061 mm)
G1 X22.3398 Y37.8325 ;  Move Only (0.19 mm)
G1 X22.4304 Y37.7802 ;  Move Only (0.1 mm)
G1 X22.6234 Y37.7584 E23.76893
G1 X22.8556 Y38.0597 ;  Move Only (0.38 mm)
G1 X23.2819 Y38.9393 ;  Move Only (0.98 mm)
G1 X23.2457 Y39.0569 E23.77043
G1 X23.1886 Y39.1286 E23.77210
G1 X23.1352 Y39.1747 E23.77361
G1 X23.1010 Y39.1944 E23.77457
G1 X23.6767 Y38.8620 ;  Move Only (0.66 mm)
G1 X23.8894 Y38.8323 E23.77979
G1 X24.1758 Y39.1419 ;  Move Only (0.42 mm)
G1 X24.6665 Y39.9354 ;  Move Only (0.93 mm)
G1 X24.6377 Y40.0496 E23.78123
G1 X24.5813 Y40.1243 E23.78294
G1 X24.5412 Y40.1597 E23.78407
G1 X24.5098 Y40.1824 E23.78496
G1 X24.4912 Y40.1931 E23.78548
G1 X25.1008 Y39.8412 ;  Move Only (0.7 mm)
G1 X25.3164 Y39.8153 E23.79077
G1 X25.5839 Y40.1461 ;  Move Only (0.43 mm)
G1 X26.0009 Y40.9511 ;  Move Only (0.91 mm)
G1 X26.1235 Y40.9869 E23.79232
G1 X26.2253 Y40.9747 E23.79419
G1 X26.2809 Y40.9562 E23.79544
G1 X26.3197 Y40.9388 E23.79641
G1 X26.3401 Y40.9270 E23.79698
G1 X26.7165 Y40.7096 ;  Move Only (0.43 mm)
G1 X26.9677 Y40.6710 E23.80317
G1 X27.1624 Y40.8291 ;  Move Only (0.25 mm)
G1 X27.3247 Y41.0203 ;  Move Only (0.25 mm)
G1 X27.8022 Y41.7023 ;  Move Only (0.83 mm)
G1 X27.9062 Y41.7718 ;  Move Only (0.13 mm)
G1 X27.9480 Y41.7654 E23.80419
G1 X28.1015 Y41.7113 E23.80816
G1 X28.1804 Y41.6658 E23.81037
G1 X28.6228 Y41.4104 ;  Move Only (0.51 mm)
G1 X28.9073 Y41.3550 E23.81743
G1 X29.1513 Y41.5059 ;  Move Only (0.29 mm)
G1 X29.3670 Y41.6949 ;  Move Only (0.29 mm)
G1 X29.9135 Y42.2602 ;  Move Only (0.79 mm)
G1 X30.0503 Y42.3298 ;  Move Only (0.15 mm)
G1 X30.1063 Y42.3190 E23.81881
G1 X30.2845 Y42.2523 E23.82344
G1 X30.3764 Y42.1993 E23.82603
G1 X30.8906 Y41.9024 ;  Move Only (0.59 mm)
G1 X31.2498 Y41.8129 E23.83504
G1 X31.5905 Y41.9509 ;  Move Only (0.37 mm)
G1 X31.9085 Y42.1349 ;  Move Only (0.37 mm)
G1 X32.4924 Y42.5296 ;  Move Only (0.7 mm)
G1 X32.6937 Y42.5952 ;  Move Only (0.21 mm)
G1 X32.7772 Y42.5744 E23.83713
G1 X33.0082 Y42.4811 E23.84319
G1 X33.1280 Y42.4119 E23.84656
G1 X33.8106 Y42.0179 ;  Move Only (0.79 mm)
G1 X33.9180 Y41.9559 E23.84958
G1 X34.3361 Y41.8114 E23.86034
G1 X34.7779 Y41.8329 ;  Move Only (0.44 mm)
G1 X36.0613 Y42.1463 ;  Move Only (1.3 mm)
G1 X36.5043 Y42.1702 ;  Move Only (0.44 mm)
G1 X36.9259 Y42.0316 E23.87114
G1 X42.5646 Y38.9283 E24.02777
G1 X42.5568 Y38.9591 E24.02855
G1 X37.8293 Y41.8617 E24.16355
G1 X37.7483 Y41.8318 E24.16460
G1 X37.6924 Y41.7734 E24.16509
G1 X37.6681 Y41.7328 E24.16524
G1 X37.6538 Y41.7013 E24.16529
G1 X37.6653 Y41.6752 E24.16564
G1 X40.4866 Y40.3928 E24.24106
G1 X40.9008 Y40.1787 E24.25240
G1 X41.2915 Y39.9242 E24.26375
G1 X42.9746 Y38.7026 E24.31436
G1 X43.1583 Y38.5359 ;  Move Only (0.25 mm)
G1 X43.5167 Y38.2438 ;  Move Only (0.46 mm)
G1 X43.9042 Y37.9916 E24.32561
G1 X43.9413 Y37.9702 E24.32666
G1 X44.2770 Y37.6809 E24.33744
G1 X44.4833 Y37.2886 ;  Move Only (0.44 mm)
G1 X44.9340 Y35.8136 ;  Move Only (1.5 mm)
G1 X45.0559 Y35.5818 ;  Move Only (0.26 mm)
G1 X45.2543 Y35.4108 E24.34382
G1 X45.5178 Y35.2587 E24.35122
G1 X46.1939 Y34.8684 ;  Move Only (0.78 mm)
G1 X46.2285 Y34.8484 E24.35219
G1 X46.5141 Y34.5514 E24.36222
G1 X46.5683 Y34.1460 ;  Move Only (0.41 mm)
G1 X46.5650 Y33.7370 ;  Move Only (0.41 mm)
G1 X46.5157 Y33.1075 ;  Move Only (0.63 mm)
G1 X46.5542 Y32.9202 ;  Move Only (0.19 mm)
G1 X46.6079 Y32.8644 E24.36410
G1 X46.7852 Y32.7256 E24.36958
G1 X46.8936 Y32.6631 E24.37263
G1 X47.3863 Y32.3786 ;  Move Only (0.57 mm)
G1 X47.6068 Y32.1238 E24.38083
G1 X47.5941 Y31.7906 ;  Move Only (0.33 mm)
G1 X47.5263 Y31.4642 ;  Move Only (0.33 mm)
G1 X47.3295 Y30.8009 ;  Move Only (0.69 mm)
G1 X47.3360 Y30.6597 ;  Move Only (0.14 mm)
G1 X47.3701 Y30.6202 E24.38210
G1 X47.5055 Y30.5084 E24.38637
G1 X47.5903 Y30.4594 E24.38876
G1 X48.0175 Y30.2128 ;  Move Only (0.49 mm)
G1 X48.1682 Y30.0278 E24.39456
G1 X48.1363 Y29.7943 ;  Move Only (0.24 mm)
G1 X48.0628 Y29.5704 ;  Move Only (0.24 mm)
G1 X47.7110 Y28.7577 ;  Move Only (0.89 mm)
G1 X47.7057 Y28.6399 ;  Move Only (0.12 mm)
G1 X47.7313 Y28.6085 E24.39555
G1 X47.8470 Y28.5099 E24.39925
G1 X47.9206 Y28.4674 E24.40132
G1 X48.3115 Y28.2417 ;  Move Only (0.45 mm)
G1 X48.4490 Y28.0586 E24.40689
G1 X48.2893 Y27.6395 ;  Move Only (0.45 mm)
G1 X47.8132 Y26.8895 ;  Move Only (0.89 mm)
G1 X47.8419 Y26.7726 E24.40835
G1 X47.8998 Y26.6955 E24.41011
G1 X47.9410 Y26.6589 E24.41129
G1 X47.9734 Y26.6356 E24.41220
G1 X47.9926 Y26.6245 E24.41274
G1 X48.3501 Y26.4182 ;  Move Only (0.41 mm)
G1 X48.4880 Y26.2407 E24.41821
G1 X48.3551 Y25.8199 ;  Move Only (0.44 mm)
G1 X47.9166 Y25.0160 ;  Move Only (0.92 mm)
G1 X47.8081 Y24.9856 E24.41958
G1 X47.7196 Y24.9967 E24.42121
G1 X47.6713 Y25.0129 E24.42229
G1 X47.6377 Y25.0281 E24.42314
G1 X47.6200 Y25.0383 E24.42363
G1 X48.1944 Y24.7067 ;  Move Only (0.66 mm)
G1 X48.3126 Y24.5455 E24.42850
G1 X48.1591 Y24.1856 ;  Move Only (0.39 mm)
G1 X47.6035 Y23.3911 ;  Move Only (0.97 mm)
G1 X47.4869 Y23.3652 E24.42995
G1 X47.3998 Y23.3786 E24.43156
G1 X47.3358 Y23.4010 E24.43300
G1 X47.3030 Y23.4200 E24.43393
G1 X47.8602 Y23.0983 ;  Move Only (0.64 mm)
G1 X47.9880 Y22.9364 E24.43895
G1 X47.8765 Y22.5469 ;  Move Only (0.41 mm)
G1 X47.5947 Y21.9899 ;  Move Only (0.62 mm)
G1 X47.4069 Y21.5634 ;  Move Only (0.47 mm)
G1 X47.2659 Y21.1193 E24.45029
G1 X47.0831 Y20.4150 E24.46799
G1 X46.8959 Y20.1989 E24.47495
G1 X46.8317 Y20.2030 ;  Move Only (0.064 mm)
G1 X46.5298 Y20.2943 ;  Move Only (0.32 mm)
G1 X46.3183 Y20.3859 ;  Move Only (0.23 mm)
G1 X46.1464 Y20.3377 E24.47712
G1 X45.6567 Y19.4438 E24.50193
G1 X45.6204 Y19.1266 E24.50970
G1 X45.6833 Y19.0455 ;  Move Only (0.1 mm)
G1 X46.0036 Y18.7662 ;  Move Only (0.42 mm)
G1 X46.0948 Y18.6310 ;  Move Only (0.16 mm)
G1 X45.9310 Y18.3585 E24.51743
G1 X45.2159 Y17.6185 E24.54248
G1 X45.0841 Y17.5514 E24.54608
G1 X45.0302 Y17.5618 ;  Move Only (0.055 mm)
G1 X44.8584 Y17.6260 ;  Move Only (0.18 mm)
G1 X44.6914 Y17.6116 E24.54811
G1 X43.8269 Y16.8896 E24.57553
G1 X43.7195 Y16.6315 E24.58233
G1 X43.7478 Y16.5870 ;  Move Only (0.053 mm)
G1 X43.9802 Y16.3644 ;  Move Only (0.32 mm)
G1 X44.1688 Y16.2228 ;  Move Only (0.24 mm)
G1 X44.1742 Y16.0836 E24.58402
G1 X43.0059 Y15.2823 E24.61850
G1 X42.8540 Y15.2320 E24.62240
G1 X42.7910 Y15.2475 ;  Move Only (0.065 mm)
G1 X42.6161 Y15.3180 ;  Move Only (0.19 mm)
G1 X42.5254 Y15.3704 ;  Move Only (0.1 mm)
G1 X42.3214 Y15.3975 E24.62740
G1 X42.0540 Y15.0951 ;  Move Only (0.4 mm)
G1 X41.5731 Y14.2711 ;  Move Only (0.95 mm)
G1 X41.6031 Y14.1580 E24.62883
G1 X41.6586 Y14.0855 E24.63049
G1 X41.7119 Y14.0387 E24.63201
G1 X41.7464 Y14.0188 E24.63297
G1 X41.1492 Y14.3636 ;  Move Only (0.69 mm)
G1 X40.9319 Y14.3881 E24.63830
G1 X40.6714 Y14.0484 ;  Move Only (0.43 mm)
G1 X40.2784 Y13.2320 ;  Move Only (0.91 mm)
G1 X40.1625 Y13.1962 E24.63977
G1 X40.0637 Y13.2074 E24.64159
G1 X40.0095 Y13.2252 E24.64280
G1 X39.9717 Y13.2421 E24.64375
G1 X39.9518 Y13.2536 E24.64430
G1 X39.5726 Y13.4725 ;  Move Only (0.44 mm)
G1 X39.3380 Y13.5063 E24.65007
G1 X39.1612 Y13.3535 ;  Move Only (0.23 mm)
G1 X39.0164 Y13.1699 ;  Move Only (0.23 mm)
G1 X38.5472 Y12.4423 ;  Move Only (0.87 mm)
G1 X38.4484 Y12.3721 ;  Move Only (0.12 mm)
G1 X38.4090 Y12.3778 E24.65104
G1 X38.2581 Y12.4301 E24.65493
G1 X38.1806 Y12.4748 E24.65710
G1 X37.7584 Y12.7186 ;  Move Only (0.49 mm)
G1 X37.4772 Y12.7700 E24.66406
G1 X37.2423 Y12.6127 ;  Move Only (0.28 mm)
G1 X37.0376 Y12.4176 ;  Move Only (0.28 mm)
G1 X36.5201 Y11.8318 ;  Move Only (0.78 mm)
G1 X36.3932 Y11.7617 ;  Move Only (0.15 mm)
G1 X36.3414 Y11.7712 E24.66534
G1 X36.1704 Y11.8341 E24.66977
G1 X36.0824 Y11.8849 E24.67225
G1 X35.6037 Y12.1613 ;  Move Only (0.55 mm)
G1 X35.2624 Y12.2414 E24.68078
G1 X34.9461 Y12.0968 ;  Move Only (0.35 mm)
G1 X34.6544 Y11.9076 ;  Move Only (0.35 mm)
G1 X34.0775 Y11.4704 ;  Move Only (0.72 mm)
G1 X33.9017 Y11.4051 ;  Move Only (0.19 mm)
G1 X33.8291 Y11.4222 E24.68260
G1 X33.6214 Y11.5044 E24.68803
G1 X33.5139 Y11.5665 E24.69105
G1 X32.8998 Y11.9210 ;  Move Only (0.71 mm)
G1 X32.8173 Y11.9687 E24.69337
G1 X32.4020 Y12.1024 E24.70399
G1 X31.9734 Y12.0309 ;  Move Only (0.43 mm)
G1 X31.5549 Y11.9143 ;  Move Only (0.43 mm)
G1 X30.7348 Y11.6385 ;  Move Only (0.87 mm)
G1 X30.4473 Y11.6060 ;  Move Only (0.29 mm)
G1 X30.3267 Y11.6448 E24.70708
G1 X30.0312 Y11.7759 E24.71494
G1 X29.8763 Y11.8653 E24.71930
G1 X28.7154 Y12.5356 ;  Move Only (1.3 mm)
G1 X22.8997 Y15.8933 E24.88272
G1 X22.9043 Y15.8743 E24.88320
G1 X27.9192 Y12.7796 E25.02661
G1 X28.6037 Y12.2743 E25.04731
G1 X28.8242 Y12.1913 E25.05305
G1 X28.9186 Y12.2096 E25.05539
G1 X29.1801 Y12.2992 E25.06211
G1 X29.4499 Y12.2917 E25.06868
G1 X30.1107 Y11.9101 E25.08725
G1 X30.3896 Y11.9259 E25.09405
G1 X30.5564 Y11.9860 E25.09836
G1 X30.6728 Y12.0483 E25.10158
G1 X30.8024 Y12.0718 E25.10478
G1 X32.3586 Y11.6289 E25.14416
G1 X32.6163 Y11.7025 E25.15068
G1 X32.7583 Y11.7907 E25.15475
G1 X32.8535 Y11.8701 E25.15776
G1 X32.9594 Y11.8866 E25.16037
G1 X33.3204 Y11.6782 E25.17051
G1 X33.5252 Y11.7253 E25.17563
G1 X33.6543 Y11.8138 E25.17944
G1 X33.7393 Y11.8992 E25.18237
G1 X33.8355 Y11.9213 E25.18477
G1 X34.1481 Y11.7407 E25.19356
G1 X34.3493 Y11.7890 E25.19859
G1 X34.4766 Y11.8789 E25.20239
G1 X34.5600 Y11.9656 E25.20531
G1 X34.6633 Y12.0122 E25.20807
G1 X35.6345 Y11.8684 E25.23196
G1 X35.8486 Y11.9824 E25.23787
G1 X35.9600 Y12.0987 E25.24179
G1 X36.0289 Y12.1983 E25.24474
G1 X36.1164 Y12.2255 E25.24696
G1 X36.3317 Y12.1012 E25.25301
G1 X36.5148 Y12.1551 E25.25766
G1 X36.6332 Y12.2530 E25.26140
G1 X36.6882 Y12.3215 E25.26354
G1 X36.7230 Y12.3750 E25.26509
G1 X36.7696 Y12.3888 E25.26627
G1 X36.9722 Y12.2718 E25.27196
G1 X37.1428 Y12.3290 E25.27634
G1 X37.2550 Y12.4328 E25.28006
G1 X37.3057 Y12.5049 E25.28221
G1 X37.3368 Y12.5610 E25.28377
G1 X37.3814 Y12.5760 E25.28491
G1 X37.5807 Y12.4609 E25.29051
G1 X37.7523 Y12.5177 E25.29491
G1 X37.8651 Y12.6210 E25.29863
G1 X37.9162 Y12.6929 E25.30078
G1 X37.9476 Y12.7487 E25.30234
G1 X37.9924 Y12.7636 E25.30349
G1 X38.1696 Y12.6613 E25.30847
G1 X38.3254 Y12.7214 E25.31253
G1 X38.4304 Y12.8326 E25.31625
G1 X38.4759 Y12.9094 E25.31842
G1 X38.5026 Y12.9688 E25.32001
G1 X38.5496 Y13.0031 E25.32143
G1 X39.2198 Y13.0024 E25.33773
G1 X39.4131 Y13.1520 E25.34368
G1 X39.5043 Y13.2905 E25.34772
G1 X39.5551 Y13.4049 E25.35077
G1 X39.6331 Y13.4376 E25.35282
G1 X39.7513 Y13.3693 E25.35614
G1 X39.8974 Y13.4308 E25.36000
G1 X39.9977 Y13.5471 E25.36374
G1 X40.0396 Y13.6273 E25.36594
G1 X40.0632 Y13.6890 E25.36755
G1 X40.1040 Y13.7061 E25.36862
G1 X40.2438 Y13.6254 E25.37255
G1 X40.3818 Y13.6876 E25.37624
G1 X40.4782 Y13.8085 E25.38000
G1 X40.5169 Y13.8915 E25.38223
G1 X40.5379 Y13.9553 E25.38386
G1 X40.5775 Y13.9731 E25.38492
G1 X40.7007 Y13.9020 E25.38838
G1 X40.8370 Y13.9644 E25.39203
G1 X40.9327 Y14.0862 E25.39580
G1 X40.9708 Y14.1698 E25.39804
G1 X40.9912 Y14.2340 E25.39967
G1 X41.0305 Y14.2520 E25.40073
G1 X41.3245 Y14.2111 E25.40795
G1 X41.3515 Y14.2308 E25.40876
G1 X41.5452 Y14.4038 E25.41508
G1 X41.7022 Y14.6106 E25.42140
G1 X41.7535 Y14.6937 E25.42378
G1 X41.9232 Y14.7365 E25.42804
G1 X42.0557 Y14.7180 E25.43129
G1 X42.1535 Y14.6844 E25.43381
G1 X42.2494 Y14.6911 E25.43615
G1 X42.4556 Y14.8520 E25.44252
G1 X42.4480 Y14.9619 E25.44520
G1 X42.3842 Y15.0641 E25.44813
G1 X42.3324 Y15.1141 E25.44988
G1 X42.2902 Y15.1460 E25.45117
G1 X42.2873 Y15.1793 E25.45198
G1 X42.5075 Y15.3618 E25.45894
G1 X42.7122 Y15.3791 E25.46394
G1 X42.8423 Y15.3501 E25.46718
G1 X42.9352 Y15.3139 E25.46961
G1 X43.0253 Y15.3223 E25.47181
G1 X43.2178 Y15.4876 E25.47799
G1 X43.2069 Y15.6052 E25.48086
G1 X43.1407 Y15.7084 E25.48385
G1 X43.0881 Y15.7587 E25.48562
G1 X43.0454 Y15.7906 E25.48692
G1 X43.0465 Y15.8179 E25.48758
G1 X43.8880 Y16.2121 E25.51019
G1 X43.8912 Y16.2852 E25.51198
G1 X43.8365 Y16.3847 E25.51474
G1 X43.7874 Y16.4349 E25.51645
G1 X43.7463 Y16.4668 E25.51771
G1 X43.7413 Y16.5020 E25.51858
G1 X43.9319 Y16.7010 E25.52529
G1 X44.1164 Y16.7273 E25.52982
G1 X44.2411 Y16.7032 E25.53291
G1 X44.3311 Y16.6696 E25.53525
G1 X44.4127 Y16.6832 E25.53726
G1 X44.5761 Y16.8705 E25.54331
G1 X44.5547 Y16.9993 E25.54649
G1 X44.4877 Y17.0959 E25.54935
G1 X44.4373 Y17.1423 E25.55102
G1 X44.3971 Y17.1719 E25.55223
G1 X44.3906 Y17.2072 E25.55311
G1 X44.5575 Y17.4140 E25.55957
G1 X44.7341 Y17.4468 E25.56395
G1 X44.8600 Y17.4252 E25.56706
G1 X44.9517 Y17.3921 E25.56943
G1 X45.0124 Y17.4176 E25.57103
G1 X45.1970 Y18.1351 E25.58906
G1 X45.3085 Y18.1820 E25.59200
G1 X45.4253 Y18.1746 E25.59485
G1 X45.4912 Y18.1547 E25.59653
G1 X45.5375 Y18.1347 E25.59775
G1 X45.5771 Y18.1439 E25.59874
G1 X45.7251 Y18.3644 E25.60521
G1 X45.6917 Y18.5084 E25.60880
G1 X45.6199 Y18.6053 E25.61174
G1 X45.5683 Y18.6513 E25.61342
G1 X45.5276 Y18.6807 E25.61464
G1 X45.5192 Y18.7176 E25.61556
G1 X45.6720 Y18.9437 E25.62221
G1 X45.8263 Y18.9793 E25.62606
G1 X45.9430 Y18.9618 E25.62893
G1 X46.0288 Y18.9318 E25.63114
G1 X46.0987 Y18.9502 E25.63290
G1 X46.2217 Y19.1580 E25.63878
G1 X46.1823 Y19.3080 E25.64255
G1 X46.1086 Y19.4047 E25.64551
G1 X46.0376 Y19.4671 E25.64781
G1 X46.0171 Y19.5401 E25.64966
G1 X46.1326 Y19.7516 E25.65552
G1 X46.2791 Y19.7927 E25.65922
G1 X46.3986 Y19.7777 E25.66215
G1 X46.4636 Y19.7558 E25.66382
G1 X46.5091 Y19.7353 E25.66504
G1 X46.5357 Y19.7489 E25.66577
G1 X46.6187 Y20.5665 E25.68577
G1 X46.7073 Y20.6119 E25.68819
G1 X46.8215 Y20.6090 E25.69097
G1 X46.8876 Y20.5904 E25.69264
G1 X46.9341 Y20.5708 E25.69387
G1 X46.9694 Y20.5825 E25.69477
G1 X47.0763 Y20.8307 E25.70135
G1 X47.0235 Y20.9900 E25.70543
G1 X46.9465 Y21.0845 E25.70840
G1 X46.8755 Y21.1450 E25.71067
G1 X46.8496 Y21.2196 E25.71259
G1 X46.9387 Y21.4439 E25.71846
G1 X47.0716 Y21.4901 E25.72189
G1 X47.1927 Y21.4785 E25.72485
G1 X47.2598 Y21.4571 E25.72656
G1 X47.3066 Y21.4364 E25.72781
G1 X47.3310 Y21.4506 E25.72849
G1 X47.3236 Y22.3330 E25.74997
G1 X47.3946 Y22.3744 E25.75197
G1 X47.5054 Y22.3746 E25.75467
G1 X47.5708 Y22.3572 E25.75631
G1 X47.6170 Y22.3381 E25.75753
G1 X47.6393 Y22.3519 E25.75817
G1 X47.5833 Y23.2645 E25.78042
G1 X47.6482 Y23.3047 E25.78228
G1 X47.7610 Y23.3064 E25.78502
G1 X47.8283 Y23.2889 E25.78671
G1 X47.8759 Y23.2694 E25.78796
G1 X47.9077 Y23.2827 E25.78880
G1 X47.9757 Y23.5472 E25.79545
G1 X47.8993 Y23.7289 E25.80024
G1 X47.8118 Y23.8282 E25.80347
G1 X47.7346 Y23.8914 E25.80590
G1 X47.6958 Y23.9740 E25.80812
G1 X47.7393 Y24.2282 E25.81439
G1 X47.8433 Y24.2770 E25.81719
G1 X47.9645 Y24.2718 E25.82014
G1 X48.0338 Y24.2516 E25.82190
G1 X48.0825 Y24.2309 E25.82318
G1 X48.1130 Y24.2451 E25.82400
G1 X48.1619 Y24.5230 E25.83087
G1 X48.0740 Y24.7115 E25.83593
G1 X47.9826 Y24.8112 E25.83922
G1 X47.9036 Y24.8745 E25.84169
G1 X47.8990 Y24.9376 E25.84323
G1 X48.1046 Y25.0997 E25.84960
G1 X48.0966 Y25.2105 E25.85230
G1 X48.0324 Y25.3131 E25.85525
G1 X47.9804 Y25.3632 E25.85700
G1 X47.9380 Y25.3951 E25.85829
G1 X47.9355 Y25.4282 E25.85910
G1 X48.1552 Y25.6043 E25.86595
G1 X48.1464 Y25.7197 E25.86877
G1 X48.0799 Y25.8253 E25.87181
G1 X48.0263 Y25.8769 E25.87362
G1 X47.9827 Y25.9097 E25.87494
G1 X47.9800 Y25.9438 E25.87578
G1 X48.1951 Y26.1177 E25.88251
G1 X48.1859 Y26.2357 E25.88539
G1 X48.1182 Y26.3431 E25.88848
G1 X48.0636 Y26.3956 E25.89032
G1 X48.0192 Y26.4290 E25.89167
G1 X48.0154 Y26.4650 E25.89256
G1 X48.2085 Y26.6399 E25.89890
G1 X48.1946 Y26.7702 E25.90209
G1 X48.1226 Y26.8810 E25.90530
G1 X48.0659 Y26.9347 E25.90720
G1 X48.0200 Y26.9690 E25.90860
G1 X48.0165 Y27.0056 E25.90949
G1 X48.2110 Y27.1752 E25.91577
G1 X48.1984 Y27.3055 E25.91896
G1 X48.1254 Y27.4188 E25.92224
G1 X48.0675 Y27.4739 E25.92418
G1 X48.0207 Y27.5090 E25.92561
G1 X48.0154 Y27.5482 E25.92657
G1 X48.1860 Y27.7205 E25.93247
G1 X48.1667 Y27.8650 E25.93602
G1 X48.0892 Y27.9806 E25.93940
G1 X48.0296 Y28.0364 E25.94139
G1 X47.9816 Y28.0719 E25.94284
G1 X47.9766 Y28.1115 E25.94382
G1 X48.1448 Y28.2758 E25.94954
G1 X48.1262 Y28.4238 E25.95317
G1 X48.0462 Y28.5443 E25.95669
G1 X47.9842 Y28.6026 E25.95876
G1 X47.9342 Y28.6397 E25.96027
G1 X47.9275 Y28.6825 E25.96133
G1 X48.0765 Y28.8476 E25.96674
G1 X48.0511 Y29.0084 E25.97070
G1 X47.9669 Y29.1310 E25.97432
G1 X47.9032 Y29.1899 E25.97643
G1 X47.8522 Y29.2275 E25.97797
G1 X47.8455 Y29.2709 E25.97904
G1 X47.9846 Y29.4234 E25.98407
G1 X47.9580 Y29.5948 E25.98829
G1 X47.8679 Y29.7263 E25.99216
G1 X47.7997 Y29.7894 E25.99443
G1 X47.7450 Y29.8297 E25.99608
G1 X47.7366 Y29.8773 E25.99726
G1 X47.8667 Y30.0327 E26.00219
G1 X47.8355 Y30.2091 E26.00655
G1 X47.7445 Y30.3390 E26.01041
G1 X47.6766 Y30.4012 E26.01265
G1 X47.6225 Y30.4408 E26.01428
G1 X47.6134 Y30.4885 E26.01546
G1 X47.7273 Y30.6324 E26.01993
G1 X47.6901 Y30.8266 E26.02474
G1 X47.5909 Y30.9662 E26.02891
G1 X47.5176 Y31.0329 E26.03132
G1 X47.4594 Y31.0754 E26.03308
G1 X47.4473 Y31.1284 E26.03440
G1 X47.5439 Y31.2705 E26.03858
G1 X47.4958 Y31.4807 E26.04383
G1 X47.3909 Y31.6228 E26.04813
G1 X47.3153 Y31.6903 E26.05059
G1 X47.2557 Y31.7334 E26.05238
G1 X47.2426 Y31.7879 E26.05375
G1 X47.3274 Y31.9184 E26.05753
G1 X47.2733 Y32.1442 E26.06318
G1 X47.1612 Y32.2943 E26.06775
G1 X47.0810 Y32.3656 E26.07036
G1 X47.0179 Y32.4112 E26.07225
G1 X47.0015 Y32.4704 E26.07375
G1 X47.0651 Y32.5853 E26.07694
G1 X46.9941 Y32.8408 E26.08340
G1 X46.8691 Y33.0023 E26.08837
G1 X46.7500 Y33.1063 E26.09221
G1 X46.7128 Y33.2299 E26.09536
G1 X46.7456 Y33.2954 E26.09714
G1 X46.7663 Y33.5349 E26.10299
G1 X46.7169 Y33.5973 E26.10492
G1 X46.4779 Y33.8037 E26.11261
G1 X46.3924 Y34.0555 E26.11908
G1 X46.4188 Y34.3117 E26.12535
G1 X46.2849 Y34.5293 E26.13157
G1 X46.1209 Y34.7253 E26.13778
G1 X45.4790 Y35.3879 E26.16024
G1 X45.4064 Y35.6613 E26.16712
G1 X45.4057 Y35.8324 E26.17128
G1 X45.4211 Y35.9574 E26.17435
G1 X45.3779 Y36.0600 E26.17706
G1 X44.8066 Y36.3899 E26.19311
G1 X44.6846 Y36.6367 E26.19981
G1 X44.6556 Y36.8101 E26.20409
G1 X44.6532 Y36.9411 E26.20728
G1 X44.5995 Y37.0498 E26.21023
G1 X43.8287 Y37.4948 E26.23189
G1 X43.6382 Y37.6726 E26.23823
G1 X43.5979 Y37.7777 E26.24097
G1 X43.5246 Y38.0625 E26.24813
G1 X43.3611 Y38.3052 E26.25525
G1 X37.6329 Y41.6124 E26.41622
G1 X37.3770 Y41.6926 E26.42274
G1 X37.2614 Y41.6767 E26.42558
G1 X36.9694 Y41.6033 E26.43291
G1 X36.6689 Y41.6285 E26.44025
G1 X35.9895 Y42.0208 E26.45934
G1 X35.6959 Y42.0121 E26.46649
G1 X35.5216 Y41.9571 E26.47094
G1 X35.3992 Y41.8989 E26.47423
G1 X35.2712 Y41.8951 E26.47735
G1 X34.7262 Y42.2098 E26.49267
G1 X34.4665 Y42.1851 E26.49902
G1 X34.3095 Y42.1180 E26.50317
G1 X34.2011 Y42.0503 E26.50628
G1 X34.0781 Y42.0207 E26.50936
G1 X32.7373 Y42.3496 E26.54296
G1 X32.4960 Y42.2629 E26.54920
G1 X32.3647 Y42.1655 E26.55318
G1 X32.2784 Y42.0794 E26.55614
G1 X32.1793 Y42.0590 E26.55860
G1 X31.8465 Y42.2512 E26.56796
G1 X31.6468 Y42.2024 E26.57296
G1 X31.5203 Y42.1118 E26.57675
G1 X31.4376 Y42.0246 E26.57967
G1 X31.3431 Y42.0015 E26.58204
G1 X31.0679 Y42.1603 E26.58977
G1 X30.8738 Y42.1097 E26.59465
G1 X30.7499 Y42.0167 E26.59842
G1 X30.6697 Y41.9275 E26.60134
G1 X30.5770 Y41.9033 E26.60367
G1 X30.3368 Y42.0420 E26.61042
G1 X30.1525 Y41.9884 E26.61509
G1 X30.0336 Y41.8910 E26.61883
G1 X29.9782 Y41.8228 E26.62097
G1 X29.9431 Y41.7696 E26.62252
G1 X29.8917 Y41.7416 E26.62395
G1 X29.0307 Y41.8231 E26.64500
G1 X28.8204 Y41.6979 E26.65095
G1 X28.7139 Y41.5759 E26.65489
G1 X28.6493 Y41.4728 E26.65786
G1 X28.5641 Y41.4443 E26.66004
G1 X28.3759 Y41.5530 E26.66533
G1 X28.2112 Y41.4945 E26.66958
G1 X28.1019 Y41.3878 E26.67330
G1 X28.0533 Y41.3138 E26.67545
G1 X28.0239 Y41.2564 E26.67702
G1 X27.9803 Y41.2409 E26.67815
G1 X27.8029 Y41.3433 E26.68313
G1 X27.6435 Y41.2839 E26.68728
G1 X27.5367 Y41.1746 E26.69099
G1 X27.4900 Y41.0990 E26.69316
G1 X27.4621 Y41.0404 E26.69474
G1 X27.4193 Y41.0244 E26.69585
G1 X27.0610 Y41.0924 E26.70472
G1 X26.9577 Y41.0381 E26.70757
G1 X26.7509 Y40.9060 E26.71353
G1 X26.5692 Y40.7413 E26.71950
G1 X26.5295 Y40.6987 E26.72092
G1 X26.3085 Y40.6657 E26.72636
G1 X26.1579 Y40.6943 E26.73009
G1 X26.0491 Y40.7347 E26.73291
G1 X25.9785 Y40.7040 E26.73479
G1 X25.9287 Y40.4878 E26.74019
G1 X25.8050 Y40.4339 E26.74347
G1 X25.6711 Y40.4415 E26.74674
G1 X25.5953 Y40.4641 E26.74866
G1 X25.5421 Y40.4871 E26.75007
G1 X25.5070 Y40.4719 E26.75100
G1 X25.4488 Y40.2236 E26.75721
G1 X25.3249 Y40.1700 E26.76049
G1 X25.1917 Y40.1777 E26.76374
G1 X25.1162 Y40.2002 E26.76566
G1 X25.0633 Y40.2230 E26.76706
G1 X25.0302 Y40.2076 E26.76795
G1 X24.9838 Y39.9420 E26.77451
G1 X24.8729 Y39.8902 E26.77749
G1 X24.7441 Y39.8958 E26.78062
G1 X24.6706 Y39.9172 E26.78249
G1 X24.6189 Y39.9392 E26.78385
G1 X24.5860 Y39.9243 E26.78473
G1 X24.5334 Y39.6540 E26.79143
G1 X24.4239 Y39.6042 E26.79436
G1 X24.3002 Y39.6102 E26.79737
G1 X24.2298 Y39.6309 E26.79916
G1 X24.1803 Y39.6521 E26.80047
G1 X24.1505 Y39.6375 E26.80128
G1 X24.1126 Y39.3555 E26.80820
G1 X24.0111 Y39.3056 E26.81095
G1 X23.8866 Y39.3098 E26.81398
G1 X23.8150 Y39.3303 E26.81580
G1 X23.7646 Y39.3516 E26.81713
G1 X23.7145 Y39.3482 E26.81835
G1 X23.4857 Y39.1708 E26.82540
G1 X23.4932 Y39.0612 E26.82807
G1 X23.5571 Y38.9587 E26.83101
G1 X23.6090 Y38.9086 E26.83277
G1 X23.6513 Y38.8767 E26.83406
G1 X23.6538 Y38.8436 E26.83486
G1 X23.4314 Y38.6643 E26.84182
G1 X23.2219 Y38.6480 E26.84693
G1 X23.0897 Y38.6781 E26.85023
G1 X22.9954 Y38.7150 E26.85269
G1 X22.9049 Y38.7053 E26.85491
G1 X22.7181 Y38.5359 E26.86105
G1 X22.7309 Y38.4167 E26.86396
G1 X22.7967 Y38.3156 E26.86690
G1 X22.8485 Y38.2665 E26.86864
G1 X22.8903 Y38.2353 E26.86991
G1 X22.8892 Y38.2086 E26.87056
G1 X22.0436 Y37.8139 E26.89327
G1 X22.0404 Y37.7418 E26.89502
G1 X22.0943 Y37.6436 E26.89775
G1 X22.1429 Y37.5940 E26.89944
G1 X22.1834 Y37.5626 E26.90069
G1 X22.1829 Y37.5350 E26.90136
G1 X21.3855 Y37.1151 E26.92329
G1 X21.3840 Y37.0369 E26.92519
G1 X21.4385 Y36.9403 E26.92789
G1 X21.4865 Y36.8919 E26.92955
G1 X21.5264 Y36.8612 E26.93078
G1 X21.5267 Y36.8328 E26.93147
G1 X20.7854 Y36.3865 E26.95252
G1 X20.7862 Y36.2996 E26.95464
G1 X20.8427 Y36.2027 E26.95737
G1 X20.8911 Y36.1545 E26.95903
G1 X20.9310 Y36.1240 E26.96025
G1 X20.9387 Y36.0875 E26.96116
G1 X20.7798 Y35.8706 E26.96770
G1 X20.6156 Y35.8360 E26.97179
G1 X20.4947 Y35.8553 E26.97477
G1 X20.4062 Y35.8867 E26.97705
G1 X20.3311 Y35.8696 E26.97892
G1 X20.1945 Y35.6705 E26.98480
G1 X20.2269 Y35.5277 E26.98836
G1 X20.2982 Y35.4309 E26.99129
G1 X20.3497 Y35.3849 E26.99297
G1 X20.3903 Y35.3555 E26.99419
G1 X20.3988 Y35.3186 E26.99511
G1 X20.2488 Y35.0967 E27.00163
G1 X20.0899 Y35.0601 E27.00560
G1 X19.9697 Y35.0781 E27.00856
G1 X19.8814 Y35.1089 E27.01083
G1 X19.8098 Y35.0897 E27.01263
G1 X19.6895 Y34.8812 E27.01849
G1 X19.7298 Y34.7307 E27.02228
G1 X19.8036 Y34.6345 E27.02524
G1 X19.8744 Y34.5725 E27.02753
G1 X19.8948 Y34.4998 E27.02936
G1 X19.7820 Y34.2933 E27.03509
G1 X19.6306 Y34.2508 E27.03892
G1 X19.5071 Y34.2663 E27.04194
G1 X19.4154 Y34.2971 E27.04430
G1 X19.3435 Y34.2760 E27.04612
G1 X19.2339 Y34.0622 E27.05197
G1 X19.2795 Y33.9077 E27.05589
G1 X19.3547 Y33.8122 E27.05885
G1 X19.4257 Y33.7508 E27.06113
G1 X19.4487 Y33.6770 E27.06301
G1 X19.3454 Y33.4584 E27.06890
G1 X19.2064 Y33.4149 E27.07244
G1 X19.0871 Y33.4281 E27.07536
G1 X19.0216 Y33.4496 E27.07704
G1 X18.9759 Y33.4701 E27.07826
G1 X18.9401 Y33.4588 E27.07917
G1 X18.8281 Y33.2204 E27.08558
G1 X18.8788 Y33.0588 E27.08970
G1 X18.9572 Y32.9610 E27.09275
G1 X19.0302 Y32.8982 E27.09510
G1 X19.0397 Y32.8324 E27.09672
G1 X18.5352 Y32.3049 E27.11448
G1 X18.5533 Y32.1783 E27.11759
G1 X18.6205 Y32.0789 E27.12051
G1 X18.6719 Y32.0310 E27.12222
G1 X18.7132 Y32.0005 E27.12347
G1 X18.7283 Y31.9595 E27.12453
G1 X18.6379 Y31.7035 E27.13114
G1 X18.5132 Y31.6575 E27.13437
G1 X18.3950 Y31.6676 E27.13726
G1 X18.3292 Y31.6882 E27.13894
G1 X18.2831 Y31.7085 E27.14016
G1 X18.2606 Y31.6946 E27.14081
G1 X18.3127 Y30.7898 E27.16286
G1 X18.2454 Y30.7483 E27.16479
G1 X18.1292 Y30.7466 E27.16762
G1 X18.0600 Y30.7647 E27.16936
G1 X18.0110 Y30.7847 E27.17064
G1 X17.9890 Y30.7702 E27.17129
G1 X18.0974 Y29.8281 E27.19437
G1 X18.0385 Y29.7894 E27.19608
G1 X17.9227 Y29.7861 E27.19890
G1 X17.8527 Y29.8038 E27.20066
G1 X17.8032 Y29.8239 E27.20196
G1 X17.7822 Y29.8094 E27.20258
G1 X17.9403 Y28.8323 E27.22666
G1 X17.8885 Y28.7966 E27.22820
G1 X17.7736 Y28.7920 E27.23099
G1 X17.7035 Y28.8092 E27.23275
G1 X17.6539 Y28.8292 E27.23405
G1 X17.6247 Y28.8145 E27.23485
G1 X17.5925 Y28.5318 E27.24177
G1 X17.6937 Y28.3309 E27.24725
G1 X17.7919 Y28.2270 E27.25073
G1 X17.8753 Y28.1611 E27.25331
G1 X17.8808 Y28.0940 E27.25495
G1 X17.6859 Y27.9342 E27.26108
G1 X17.6954 Y27.8185 E27.26391
G1 X17.7615 Y27.7142 E27.26691
G1 X17.8145 Y27.6632 E27.26870
G1 X17.8576 Y27.6308 E27.27002
G1 X17.8614 Y27.5958 E27.27087
G1 X17.6678 Y27.4200 E27.27724
G1 X17.6818 Y27.2897 E27.28043
G1 X17.7538 Y27.1791 E27.28364
G1 X17.8104 Y27.1255 E27.28553
G1 X17.8561 Y27.0913 E27.28692
G1 X17.8604 Y27.0539 E27.28784
G1 X17.6695 Y26.8759 E27.29419
G1 X17.6844 Y26.7457 E27.29738
G1 X17.7557 Y26.6369 E27.30055
G1 X17.8115 Y26.5842 E27.30241
G1 X17.8566 Y26.5507 E27.30378
G1 X17.8610 Y26.5136 E27.30469
G1 X17.6839 Y26.3440 E27.31066
G1 X17.7010 Y26.2022 E27.31413
G1 X17.7781 Y26.0855 E27.31754
G1 X17.8381 Y26.0290 E27.31954
G1 X17.8864 Y25.9931 E27.32101
G1 X17.8919 Y25.9526 E27.32200
G1 X17.7258 Y25.7834 E27.32777
G1 X17.7460 Y25.6355 E27.33140
G1 X17.8250 Y25.5177 E27.33486
G1 X17.8858 Y25.4609 E27.33688
G1 X17.9347 Y25.4247 E27.33836
G1 X17.9406 Y25.3835 E27.33937
G1 X17.7854 Y25.2201 E27.34486
G1 X17.8082 Y25.0630 E27.34872
G1 X17.8915 Y24.9400 E27.35234
G1 X17.9551 Y24.8808 E27.35445
G1 X18.0062 Y24.8431 E27.35600
G1 X18.0136 Y24.7990 E27.35708
G1 X17.8761 Y24.6406 E27.36219
G1 X17.9049 Y24.4693 E27.36641
G1 X17.9939 Y24.3411 E27.37021
G1 X18.0607 Y24.2796 E27.37242
G1 X18.1141 Y24.2404 E27.37403
G1 X18.1216 Y24.1946 E27.37516
G1 X17.9860 Y24.0408 E27.38015
G1 X18.0144 Y23.8679 E27.38442
G1 X18.1045 Y23.7375 E27.38827
G1 X18.1724 Y23.6749 E27.39052
G1 X18.2266 Y23.6350 E27.39216
G1 X18.2368 Y23.5864 E27.39337
G1 X18.1248 Y23.4338 E27.39797
G1 X18.1655 Y23.2400 E27.40279
G1 X18.2633 Y23.1051 E27.40685
G1 X18.3346 Y23.0408 E27.40919
G1 X18.3911 Y22.9997 E27.41089
G1 X18.4015 Y22.9494 E27.41214
G1 X18.2988 Y22.8111 E27.41633
G1 X18.3414 Y22.6055 E27.42144
G1 X18.4453 Y22.4617 E27.42576
G1 X18.5213 Y22.3931 E27.42824
G1 X18.5815 Y22.3494 E27.43006
G1 X18.5954 Y22.2939 E27.43145
G1 X18.5113 Y22.1588 E27.43532
G1 X18.5678 Y21.9334 E27.44097
G1 X18.6792 Y21.7857 E27.44548
G1 X18.7584 Y21.7157 E27.44805
G1 X18.8206 Y21.6709 E27.44991
G1 X18.8359 Y21.6131 E27.45137
G1 X18.7680 Y21.4971 E27.45464
G1 X18.8340 Y21.2477 E27.46092
G1 X18.9566 Y21.0874 E27.46583
G1 X19.0744 Y20.9839 E27.46965
G1 X19.1093 Y20.8623 E27.47272
G1 X19.0496 Y20.5406 E27.48069
G1 X19.2052 Y20.2561 E27.48858
G1 X19.4022 Y19.9983 E27.49647
G1 X19.7748 Y19.5808 E27.51009
G1 X19.8275 Y19.3142 E27.51671
G1 X19.8156 Y19.1477 E27.52077
G1 X19.7906 Y19.0270 E27.52377
G1 X19.8272 Y18.9282 E27.52633
G1 X20.2627 Y18.6767 E27.53857
G1 X20.3550 Y18.4513 E27.54450
G1 X20.3648 Y18.2865 E27.54852
G1 X20.3517 Y18.1626 E27.55155
G1 X20.3934 Y18.0609 E27.55423
G1 X20.9524 Y17.7381 E27.56994
G1 X21.0664 Y17.4968 E27.57643
G1 X21.0903 Y17.3257 E27.58063
G1 X21.0887 Y17.1966 E27.58378
G1 X21.1392 Y17.0898 E27.58665
G1 X21.8722 Y16.6666 E27.60725
G1 X22.0513 Y16.4951 E27.61328
G1 X22.0851 Y16.3949 E27.61586
G1 X22.1428 Y16.1184 E27.62273
G1 X22.2917 Y15.8841 E27.62949
G1 X23.4424 Y15.2197 E27.66182
G1 X23.4267 Y15.3396 E27.66477
G1 X22.5134 Y16.1075 E27.69380
G1 X21.3939 Y16.7627 ;  Move Only (1.3 mm)
G1 X21.1227 Y16.9192 E27.70142
G1 X20.9128 Y17.2002 E27.70996
; Shell
G1 X21.0051 Y17.5330 ;  Move Only (0.35 mm)
G1 X21.1626 Y17.8403 ;  Move Only (0.35 mm)
G1 X21.4516 Y18.2864 ;  Move Only (0.53 mm)
G1 X21.7186 Y18.4407 ;  Move Only (0.31 mm)
G1 X21.9778 Y18.2861 ;  Move Only (0.3 mm)
G1 X22.1938 Y18.0752 ;  Move Only (0.3 mm)
G1 X22.4661 Y17.9298 ;  Move Only (0.31 mm)
G1 X22.7447 Y18.0515 ;  Move Only (0.3 mm)
G1 X22.9935 Y18.2262 ;  Move Only (0.3 mm)
G1 X26.5931 Y21.3356 ;  Move Only (4.8 mm)
G1 X26.7628 Y21.6607 ;  Move Only (0.37 mm)
G1 X26.7622 Y21.6626 E27.71000 F1512
G1 X26.6327 Y21.9983 E27.71772
G1 X26.4424 Y22.3037 E27.72543
G1 X26.1992 Y22.6227 E27.73403
G1 X25.6119 Y23.7027 E27.76038
G1 X25.1948 Y24.8643 E27.78683
G1 X25.0568 Y25.4541 E27.79982
G1 X24.9147 Y26.6851 E27.82638
G1 Y27.2890 E27.83932
G1 X25.0359 Y28.3839 E27.86293
G1 X25.3824 Y29.7023 E27.89215
G1 X25.8873 Y30.8283 E27.91860
G1 X26.5501 Y31.8512 E27.94473
G1 X27.2814 Y32.6795 E27.96841
G1 X27.8266 Y33.1787 E27.98426
G1 X28.8356 Y33.8885 E28.01070
G1 X29.9423 Y34.4364 E28.03717
G1 X30.5101 Y34.6405 E28.05010
G1 X31.5808 Y34.8962 E28.07370
G1 X32.9403 Y35.0157 E28.10295
G1 X34.1632 Y34.9219 E28.12924
G1 X35.3660 Y34.6403 E28.15572
G1 X35.9339 Y34.4365 E28.16865
G1 X37.0406 Y33.8885 E28.19512
G1 X38.0518 Y33.1773 E28.22162
G1 X38.5021 Y32.7758 E28.23455
G1 X39.2413 Y31.9540 E28.25825
G1 X39.6755 Y31.3543 E28.27412
G1 X40.2643 Y30.2716 E28.30053
G1 X40.6814 Y29.1101 E28.32699
G1 X40.8194 Y28.5202 E28.33997
G1 X40.9616 Y27.2892 E28.36653
G1 Y26.6855 E28.37947
G1 X40.8403 Y25.5904 E28.40309
G1 X40.4938 Y24.2720 E28.43231
G1 X39.9889 Y23.1460 E28.45876
G1 X39.6807 Y22.6277 E28.47168
G1 X38.9289 Y21.6413 E28.49827
G1 X38.0511 Y20.7965 E28.52438
G1 X37.1533 Y20.1587 E28.54799
G1 X35.9324 Y19.5371 E28.57735
G1 X35.3658 Y19.3337 E28.59026
G1 X34.2958 Y19.0780 E28.61384
G1 X32.9358 Y18.9585 E28.64310
G1 X31.7125 Y19.0525 E28.66940
G1 X30.6387 Y19.2986 E28.69301
G1 X29.9405 Y19.5389 E28.70884
G1 X28.8345 Y20.0863 E28.73529
G1 X27.9322 Y20.7147 E28.75886
G1 X27.3681 Y21.2040 E28.77487
G1 X26.9473 Y21.6415 E28.78788
G1 X27.3027 Y21.9470 F10800 ;  Move Only (0.47 mm)
G1 X26.9478 Y21.6419 ;  Move Only (0.47 mm)
G1 X27.1178 Y21.9664 ;  Move Only (0.37 mm)
G1 X27.1092 Y21.9972 E28.78856 F1424
G1 X26.9905 Y22.3050 E28.79563
G1 X26.8161 Y22.5850 E28.80270
G1 X26.5931 Y22.8774 E28.81059
G1 X26.0397 Y23.8950 E28.83541
G1 X25.6444 Y24.9961 E28.86049
G1 X25.5183 Y25.5352 E28.87236
G1 X25.3825 Y26.7119 E28.89775
G1 Y27.2622 E28.90954
G1 X25.4973 Y28.2996 E28.93192
G1 X25.8247 Y29.5454 E28.95953
G1 X26.2992 Y30.6034 E28.98438
G1 X26.9237 Y31.5673 E29.00900
G1 X27.6166 Y32.3521 E29.03144
G1 X28.1198 Y32.8129 E29.04606
G1 X29.0757 Y33.4853 E29.07111
G1 X30.1260 Y34.0053 E29.09623
G1 X30.6436 Y34.1915 E29.10802
G1 X31.6561 Y34.4331 E29.13034
G1 X32.9432 Y34.5463 E29.15803
G1 X34.0912 Y34.4583 E29.18271
G1 X35.2331 Y34.1908 E29.20785
G1 X35.7505 Y34.0053 E29.21963
G1 X36.8011 Y33.4849 E29.24476
G1 X37.7603 Y32.8103 E29.26990
G1 X38.1718 Y32.4435 E29.28171
G1 X38.8761 Y31.6604 E29.30429
G1 X39.2795 Y31.1033 E29.31903
G1 X39.8362 Y30.0799 E29.34400
G1 X40.2318 Y28.9780 E29.36910
G1 X40.3579 Y28.4391 E29.38096
G1 X40.4937 Y27.2623 E29.40635
G1 Y26.7123 E29.41814
G1 X40.3788 Y25.6744 E29.44052
G1 X40.0514 Y24.4283 E29.46814
G1 X39.5730 Y23.3617 E29.49320
G1 X39.2922 Y22.8897 E29.50497
G1 X38.5793 Y21.9540 E29.53018
G1 X37.7517 Y21.1576 E29.55480
G1 X36.9105 Y20.5599 E29.57692
G1 X35.7465 Y19.9672 E29.60492
G1 X35.2321 Y19.7826 E29.61663
G1 X34.2204 Y19.5409 E29.63893
G1 X32.9328 Y19.4279 E29.66663
G1 X31.7835 Y19.5162 E29.69134
G1 X30.7673 Y19.7490 E29.71369
G1 X30.1204 Y19.9718 E29.72835
G1 X29.0735 Y20.4899 E29.75339
G1 X28.2207 Y21.0837 E29.77566
G1 X27.6902 Y21.5440 E29.79072
G1 X27.4266 Y21.8182 E29.79887
G1 X27.3789 Y21.9439 E29.80175
; Infill
G1 X27.3964 Y21.9808 F10800 ;  Move Only (0.041 mm)
G1 X27.4773 Y22.0882 ;  Move Only (0.13 mm)
G1 X27.5435 Y22.1598 ;  Move Only (0.098 mm)
G1 X27.6356 Y22.1801 E29.80290
G1 X27.9083 Y22.0985 E29.80983
G1 X28.0535 Y22.1088 E29.81337
G1 X28.0891 Y22.1447 ;  Move Only (0.051 mm)
G1 X28.1944 Y22.2991 ;  Move Only (0.19 mm)
G1 X28.3166 Y22.3270 E29.81490
G1 X28.6780 Y22.0206 E29.82643
G1 X28.5570 Y21.9940 E29.82944
G1 X27.9553 Y22.3414 E29.84635
G1 X27.8052 Y22.6071 E29.85378
G1 X27.7592 Y22.7888 E29.85834
G1 X27.7434 Y22.9264 E29.86171
G1 X27.6784 Y23.0416 E29.86493
G1 X27.2031 Y23.3160 E29.87829
G1 X27.1316 Y23.5252 E29.88366
G1 X27.1363 Y23.6840 E29.88753
G1 X27.1615 Y23.8028 E29.89049
G1 X27.1284 Y23.8995 E29.89297
G1 X26.7874 Y24.0965 E29.90256
G1 X26.7348 Y24.2893 E29.90742
G1 X26.7539 Y24.4428 E29.91119
G1 X26.7916 Y24.5567 E29.91411
G1 X26.7861 Y24.6704 E29.91688
G1 X26.3164 Y25.3396 E29.93677
G1 X26.3226 Y25.5833 E29.94271
G1 X26.3773 Y25.7360 E29.94665
G1 X26.4361 Y25.8428 E29.94962
G1 X26.4191 Y25.9303 E29.95179
G1 X26.2076 Y26.1798 E29.95975
G1 X26.2066 Y26.2424 E29.96127
G1 X26.2251 Y26.5033 E29.96764
G1 X26.2880 Y26.7572 E29.97400
G1 X26.3165 Y26.8410 E29.97616
G1 X26.2439 Y27.0345 E29.98119
G1 X26.1506 Y27.1444 E29.98470
G1 X26.0666 Y27.2146 E29.98736
G1 X26.0624 Y27.2820 E29.98900
G1 X26.2679 Y27.4378 E29.99528
G1 X26.2610 Y27.5476 E29.99796
G1 X26.1965 Y27.6518 E30.00094
G1 X26.1438 Y27.7028 E30.00272
G1 X26.1008 Y27.7353 E30.00403
G1 X26.0911 Y27.7753 E30.00504
G1 X26.4823 Y28.3863 E30.02269
G1 X26.4454 Y28.5377 E30.02648
G1 X26.3704 Y28.6378 E30.02953
G1 X26.3169 Y28.6853 E30.03127
G1 X26.2748 Y28.7156 E30.03253
G1 X26.2576 Y28.7577 E30.03364
G1 X26.3313 Y29.0236 E30.04036
G1 X26.4472 Y29.0710 E30.04340
G1 X26.5659 Y29.0630 E30.04630
G1 X26.6327 Y29.0426 E30.04800
G1 X26.6795 Y29.0223 E30.04924
G1 X26.7136 Y29.0348 E30.05012
G1 X26.8073 Y29.2939 E30.05683
G1 X26.7478 Y29.4567 E30.06104
G1 X26.6694 Y29.5500 E30.06401
G1 X26.5984 Y29.6096 E30.06627
G1 X26.5747 Y29.6828 E30.06814
G1 X26.6735 Y29.9033 E30.07402
G1 X26.8110 Y29.9477 E30.07754
G1 X26.9312 Y29.9350 E30.08048
G1 X26.9973 Y29.9135 E30.08217
G1 X27.0436 Y29.8929 E30.08340
G1 X27.0799 Y29.9042 E30.08433
G1 X27.1983 Y30.1522 E30.09102
G1 X27.1516 Y30.3026 E30.09485
G1 X27.0787 Y30.3939 E30.09769
G1 X27.0106 Y30.4524 E30.09988
G1 X26.9943 Y30.5198 E30.10156
G1 X27.1272 Y30.7250 E30.10751
G1 X27.2837 Y30.7627 E30.11143
G1 X27.4039 Y30.7453 E30.11439
G1 X27.4924 Y30.7146 E30.11667
G1 X27.5524 Y30.7388 E30.11824
G1 X27.7595 Y31.4515 E30.13630
G1 X27.8710 Y31.4963 E30.13923
G1 X27.9837 Y31.4883 E30.14198
G1 X28.0469 Y31.4690 E30.14359
G1 X28.0912 Y31.4497 E30.14476
G1 X28.1340 Y31.4545 E30.14581
G1 X28.3325 Y31.6395 E30.15241
G1 X28.3181 Y31.7660 E30.15551
G1 X28.2488 Y31.8718 E30.15859
G1 X28.1946 Y31.9230 E30.16041
G1 X28.1508 Y31.9557 E30.16173
G1 X28.1470 Y31.9911 E30.16260
G1 X28.3495 Y32.1747 E30.16925
G1 X28.5537 Y32.1965 E30.17425
G1 X28.6864 Y32.1684 E30.17755
G1 X28.7816 Y32.1320 E30.18003
G1 X28.8394 Y32.1597 E30.18159
G1 X28.8785 Y32.4113 E30.18779
G1 X28.9827 Y32.4612 E30.19060
G1 X29.1069 Y32.4564 E30.19363
G1 X29.1780 Y32.4358 E30.19543
G1 X29.2280 Y32.4146 E30.19675
G1 X29.2586 Y32.4293 E30.19758
G1 X29.2990 Y32.6942 E30.20410
G1 X29.4103 Y32.7477 E30.20710
G1 X29.5434 Y32.7426 E30.21035
G1 X29.6198 Y32.7206 E30.21228
G1 X29.6734 Y32.6978 E30.21370
G1 X29.7093 Y32.7129 E30.21465
G1 X29.7704 Y32.9548 E30.22072
G1 X29.8990 Y33.0092 E30.22412
G1 X30.0346 Y33.0008 E30.22742
G1 X30.1111 Y32.9777 E30.22937
G1 X30.1648 Y32.9545 E30.23079
G1 X30.2016 Y32.9694 E30.23176
G1 X30.2607 Y33.1780 E30.23703
G1 X30.4132 Y33.2400 E30.24104
G1 X30.5687 Y33.2292 E30.24483
G1 X30.6560 Y33.2026 E30.24705
G1 X30.7172 Y33.1760 E30.24868
G1 X30.7613 Y33.1924 E30.24982
G1 X30.8244 Y33.3733 E30.25449
G1 X30.9989 Y33.4382 E30.25902
G1 X31.1653 Y33.4242 E30.26308
G1 X31.2580 Y33.3952 E30.26544
G1 X31.3229 Y33.3667 E30.26717
G1 X31.3748 Y33.3819 E30.26849
G1 X31.4484 Y33.5243 E30.27239
G1 X31.6697 Y33.5891 E30.27800
G1 X31.8537 Y33.5671 E30.28251
G1 X31.9542 Y33.5336 E30.28509
G1 X32.0244 Y33.5021 E30.28696
G1 X32.0830 Y33.5173 E30.28843
G1 X32.1400 Y33.6127 E30.29114
G1 X32.3338 Y33.7578 E30.29703
G1 X32.4105 Y33.7474 E30.29891
G1 X32.7163 Y33.6430 E30.30678
G1 X33.0002 Y33.6816 E30.31375
G1 X33.2261 Y33.7947 E30.31990
G1 X33.4667 Y33.7264 E30.32598
G1 X33.6928 Y33.6196 E30.33207
G1 X33.7495 Y33.5869 E30.33366
G1 X34.0413 Y33.5964 E30.34077
G1 X34.2148 Y33.6520 E30.34520
G1 X34.3364 Y33.7107 E30.34849
G1 X34.4638 Y33.7149 E30.35159
G1 X37.8718 Y31.7473 E30.44736
G1 X37.9936 Y31.5007 E30.45405
G1 X38.0223 Y31.3273 E30.45833
G1 X38.0245 Y31.1963 E30.46151
G1 X38.0660 Y31.0720 E30.46470
G1 X39.0726 Y30.0425 E30.49974
G1 X39.1022 Y29.8062 E30.50554
G1 X39.0703 Y29.6493 E30.50944
G1 X39.0275 Y29.5365 E30.51237
G1 X39.0520 Y29.4447 E30.51468
G1 X39.2959 Y29.3039 E30.52154
G1 X39.3441 Y29.1152 E30.52628
G1 X39.3212 Y28.9628 E30.53003
G1 X39.2803 Y28.8501 E30.53295
G1 X39.3036 Y28.7590 E30.53523
G1 X39.4783 Y28.6581 E30.54014
G1 X39.5095 Y28.4870 E30.54438
G1 X39.4712 Y28.3391 E30.54809
G1 X39.4310 Y28.2601 E30.55025
G1 X39.3957 Y28.2061 E30.55182
G1 X39.4040 Y28.1606 E30.55294
G1 X39.5945 Y28.0507 E30.55830
G1 X39.6208 Y27.8852 E30.56237
G1 X39.5775 Y27.7386 E30.56610
G1 X39.5339 Y27.6607 E30.56827
G1 X39.4961 Y27.6078 E30.56985
G1 X39.5032 Y27.5630 E30.57095
G1 X39.6531 Y27.4764 E30.57517
G1 X39.6676 Y27.3266 E30.57883
G1 X39.6104 Y27.1828 E30.58260
G1 X39.5574 Y27.1079 E30.58483
G1 X39.5123 Y27.0580 E30.58647
G1 X39.5165 Y27.0149 E30.58752
G1 X39.6420 Y26.9424 E30.59105
G1 X39.6562 Y26.7931 E30.59470
G1 X39.5986 Y26.6493 E30.59847
G1 X39.5453 Y26.5745 E30.60070
G1 X39.5000 Y26.5247 E30.60234
G1 X39.5041 Y26.4817 E30.60339
G1 X39.6158 Y26.4172 E30.60653
G1 X39.6238 Y26.2780 E30.60993
G1 X39.5571 Y26.1355 E30.61375
G1 X39.4975 Y26.0625 E30.61605
G1 X39.4473 Y26.0147 E30.61773
G1 X39.4498 Y25.9726 E30.61876
G1 X39.5422 Y25.9192 E30.62136
G1 X39.6501 Y25.6824 E30.62769
G1 X39.6702 Y25.5130 E30.63184
G1 X39.6655 Y25.3853 E30.63495
G1 X39.5903 Y25.3511 E30.63696
G1 X39.5162 Y25.3938 E30.63904
G1 X39.3764 Y25.3317 E30.64277
G1 X39.2791 Y25.2119 E30.64652
G1 X39.2397 Y25.1296 E30.64875
G1 X39.2181 Y25.0663 E30.65037
G1 X39.2424 Y25.0116 E30.65183
G1 X39.3175 Y24.9682 E30.65394
G1 X39.3963 Y24.7532 E30.65951
G1 X39.3968 Y24.5923 E30.66343
G1 X39.3760 Y24.4717 E30.66641
G1 X39.2937 Y24.4416 E30.66854
G1 X39.2244 Y24.4816 E30.67049
G1 X39.0542 Y24.4244 E30.67486
G1 X38.9422 Y24.3203 E30.67858
G1 X38.8916 Y24.2480 E30.68072
G1 X38.8606 Y24.1918 E30.68229
G1 X38.8776 Y24.1413 E30.68358
G1 X38.9807 Y24.0818 E30.68648
G1 X39.0354 Y23.8871 E30.69140
G1 X39.0179 Y23.7329 E30.69518
G1 X38.9817 Y23.6185 E30.69810
G1 X38.8912 Y23.5930 E30.70039
G1 X38.5804 Y23.4540 E30.70868
G1 X38.4759 Y22.9546 E30.72109
G1 X38.3665 Y22.9057 E30.72401
G1 X38.2450 Y22.9120 E30.72697
G1 X38.1760 Y22.9324 E30.72872
G1 X38.1276 Y22.9532 E30.73000
G1 X38.0931 Y22.9401 E30.73090
G1 X37.8593 Y22.2335 E30.74901
G1 X37.7333 Y22.1855 E30.75229
G1 X37.6112 Y22.1953 E30.75527
G1 X37.5431 Y22.2165 E30.75701
G1 X37.4954 Y22.2374 E30.75828
G1 X37.4484 Y22.2332 E30.75943
G1 X37.2384 Y22.0551 E30.76613
G1 X37.2493 Y21.9345 E30.76907
G1 X37.3174 Y21.8279 E30.77215
G1 X37.3716 Y21.7760 E30.77398
G1 X37.4157 Y21.7430 E30.77532
G1 X37.4178 Y21.7093 E30.77614
G1 X37.1801 Y21.5290 E30.78340
G1 X36.9761 Y21.5162 E30.78837
G1 X36.8492 Y21.5460 E30.79155
G1 X36.7589 Y21.5818 E30.79391
G1 X36.7014 Y21.5559 E30.79544
G1 X36.6548 Y21.3250 E30.80118
G1 X36.5349 Y21.2710 E30.80437
G1 X36.4007 Y21.2777 E30.80765
G1 X36.3244 Y21.3002 E30.80958
G1 X36.2708 Y21.3232 E30.81100
G1 X36.2358 Y21.3078 E30.81193
G1 X36.1798 Y21.0567 E30.81819
G1 X36.0583 Y21.0034 E30.82142
G1 X35.9258 Y21.0107 E30.82465
G1 X35.8507 Y21.0330 E30.82656
G1 X35.7980 Y21.0557 E30.82795
G1 X35.7614 Y21.0412 E30.82891
G1 X35.6978 Y20.8299 E30.83428
G1 X35.5455 Y20.7694 E30.83827
G1 X35.3932 Y20.7806 E30.84199
G1 X35.3078 Y20.8069 E30.84416
G1 X35.2480 Y20.8329 E30.84575
G1 X35.2059 Y20.8165 E30.84685
G1 X35.1462 Y20.6268 E30.85169
G1 X34.9805 Y20.5623 E30.85602
G1 X34.8172 Y20.5748 E30.86000
G1 X34.7258 Y20.6030 E30.86233
G1 X34.6618 Y20.6310 E30.86403
G1 X34.6103 Y20.6161 E30.86533
G1 X34.5356 Y20.4735 E30.86925
G1 X34.3132 Y20.4091 E30.87489
G1 X34.1292 Y20.4314 E30.87940
G1 X34.0288 Y20.4649 E30.88197
G1 X33.9587 Y20.4965 E30.88384
G1 X33.9003 Y20.4811 E30.88531
G1 X33.8354 Y20.3707 E30.88843
G1 X33.6532 Y20.2328 E30.89399
G1 X33.5812 Y20.2425 E30.89575
G1 X33.2918 Y20.3411 E30.90319
G1 X33.0319 Y20.2966 E30.90961
G1 X32.8151 Y20.1737 E30.91568
G1 X32.8108 Y20.1744 E30.91578
G1 X32.5770 Y20.2376 E30.92168
G1 X32.3576 Y20.3401 E30.92757
G1 X32.3333 Y20.3542 E30.92826
G1 X32.0586 Y20.3364 E30.93495
G1 X31.8940 Y20.2747 E30.93923
G1 X31.7794 Y20.2112 E30.94242
G1 X31.6611 Y20.2077 E30.94530
G1 X31.0930 Y20.5920 E30.96199
G1 X30.9370 Y20.7927 E30.96818
; Shell
G1 X30.9342 Y20.8901 ;  Move Only (0.097 mm)
G1 X30.9738 Y21.1972 ;  Move Only (0.31 mm)
G1 X31.0569 Y21.3030 ;  Move Only (0.13 mm)
G1 X31.3210 Y21.2912 E30.97384 F1200
G1 X32.1050 Y21.1039 E30.99112
G1 X33.2159 Y21.0519 E31.01496
G1 X34.3184 Y21.2081 E31.03883
G1 X35.3724 Y21.5672 E31.06269
G1 X36.3237 Y22.1063 E31.08613
G1 X36.7933 Y22.4684 E31.09884
G1 X37.5588 Y23.2519 E31.12232
G1 X38.1738 Y24.1780 E31.14615
G1 X38.6056 Y25.2040 E31.17001
G1 X38.8388 Y26.2927 E31.19388
G1 X38.8651 Y27.4046 E31.21771
G1 X38.6833 Y28.5017 E31.24155
G1 X38.2997 Y29.5474 E31.26543
G1 X37.7286 Y30.5018 E31.28927
G1 X36.9885 Y31.3340 E31.31314
G1 X36.1079 Y32.0128 E31.33697
G1 X35.1153 Y32.5156 E31.36082
G1 X34.4778 Y32.6997 E31.37504
G1 X34.0237 Y32.8024 E31.38502
G1 X33.5607 Y32.8515 E31.39500
G1 X32.8673 Y32.8841 E31.40988
G1 X32.4017 Y32.8787 E31.41986
G1 X31.9400 Y32.8188 E31.42984
G1 X31.2880 Y32.6950 E31.44407
G1 X30.2530 Y32.2876 E31.46791
G1 X29.3116 Y31.6935 E31.49177
G1 X28.4977 Y30.9352 E31.51561
G1 X27.8397 Y30.0385 E31.53945
G1 X27.3599 Y29.0338 E31.56332
G1 X27.0762 Y27.9583 E31.58716
G1 X26.9982 Y26.8472 E31.61103
G1 X27.1281 Y25.7427 E31.63487
G1 X27.4564 Y24.6993 E31.65832
G1 X27.7112 Y24.1655 E31.67100
G1 X28.2533 Y23.3391 E31.69218
G1 X28.7681 Y22.7977 E31.70819
G1 X29.1060 Y22.4764 E31.71819
G1 X29.4744 Y22.1906 E31.72818
G1 X30.0081 Y21.8181 E31.74213
G1 X30.8183 Y21.4543 E31.76117
G1 X30.9830 Y21.4533 E31.76470
G1 X31.0153 Y21.4882 F10800 ;  Move Only (0.048 mm)
G1 X31.1012 Y21.6325 ;  Move Only (0.17 mm)
G1 X31.1525 Y21.7434 ;  Move Only (0.12 mm)
G1 X31.1743 Y21.8073 ;  Move Only (0.068 mm)
G1 X32.1706 Y21.5693 E31.78666 F1200
G1 X31.1743 Y21.8073 F10800 ;  Move Only (1 mm)
G1 X32.1706 Y21.5693 E31.80861 F1200
G1 X33.1942 Y21.5213 E31.83058
G1 X34.2093 Y21.6651 E31.85255
G1 X35.1796 Y21.9956 E31.87452
G1 X36.0647 Y22.4974 E31.89633
G1 X36.4816 Y22.8186 E31.90761
G1 X37.1934 Y23.5473 E31.92945
G1 X37.7600 Y24.4006 E31.95140
G1 X38.1574 Y25.3448 E31.97336
G1 X38.3723 Y26.3475 E31.99534
G1 X38.3964 Y27.3717 E32.01730
G1 X38.2289 Y28.3823 E32.03926
G1 X37.8758 Y29.3449 E32.06124
G1 X37.3497 Y30.2240 E32.08319
G1 X36.6685 Y30.9901 E32.10517
G1 X35.8571 Y31.6154 E32.12713
G1 X34.9430 Y32.0784 E32.14909
G1 X34.4011 Y32.2350 E32.16118
G1 X33.9470 Y32.3378 E32.17116
G1 X33.4840 Y32.3868 E32.18114
G1 X32.9002 Y32.4143 E32.19367
G1 X32.4346 Y32.4088 E32.20365
G1 X31.9729 Y32.3489 E32.21363
G1 X31.4187 Y32.2436 E32.22572
G1 X30.4654 Y31.8684 E32.24768
G1 X29.5985 Y31.3215 E32.26965
G1 X28.8489 Y30.6230 E32.29161
G1 X28.2428 Y29.7970 E32.31357
G1 X27.8011 Y28.8720 E32.33554
G1 X27.5399 Y27.8814 E32.35750
G1 X27.4679 Y26.8586 E32.37948
G1 X27.5877 Y25.8411 E32.40144
G1 X27.8929 Y24.8708 E32.42324
G1 X28.1198 Y24.3957 E32.43453
G1 X28.6213 Y23.6310 E32.45413
G1 X29.0745 Y23.1544 E32.46823
G1 X29.4124 Y22.8331 E32.47822
G1 X29.7808 Y22.5473 E32.48821
G1 X30.2396 Y22.2271 E32.50021
G1 X31.1743 Y21.8073 E32.52217
; Infill
G1 X30.8676 Y20.3723 F10800 ;  Move Only (1.5 mm)
G1 X31.1743 Y21.8073 ;  Move Only (1.5 mm)
G1 X30.9341 Y20.6835 ;  Move Only (1.1 mm)
G1 X30.9564 Y20.4069 ;  Move Only (0.28 mm)
G1 X31.0245 Y20.3194 E32.52487
G1 X31.2628 Y20.0914 E32.53289
G1 X31.4183 Y20.0302 E32.53696
G1 X31.7410 Y20.1066 ;  Move Only (0.33 mm)
G1 X33.1314 Y20.6202 ;  Move Only (1.5 mm)
G1 X33.3114 Y20.6445 ;  Move Only (0.18 mm)
G1 X33.3868 Y20.6208 E32.53888
G1 X33.5735 Y20.5387 E32.54384
G1 X33.6712 Y20.4823 E32.54659
G1 X34.1887 Y20.1835 ;  Move Only (0.6 mm)
G1 X34.4748 Y20.1332 E32.55366
G1 X34.7099 Y20.2982 ;  Move Only (0.29 mm)
G1 X34.9127 Y20.5016 ;  Move Only (0.29 mm)
G1 X35.4231 Y21.1116 ;  Move Only (0.8 mm)
G1 X35.5227 Y21.1692 ;  Move Only (0.12 mm)
G1 X35.5631 Y21.1621 E32.55466
G1 X35.7000 Y21.1123 E32.55821
G1 X35.7705 Y21.0716 E32.56019
G1 X36.1360 Y20.8606 ;  Move Only (0.42 mm)
G1 X36.3607 Y20.8290 E32.56571
G1 X36.6648 Y21.1545 ;  Move Only (0.45 mm)
G1 X37.1559 Y21.9389 ;  Move Only (0.93 mm)
G1 X37.1316 Y22.0365 E32.56693
G1 X37.0833 Y22.1007 E32.56840
G1 X37.0489 Y22.1311 E32.56937
G1 X37.0219 Y22.1505 E32.57013
G1 X37.0060 Y22.1597 E32.57058
G1 X37.5659 Y21.8364 ;  Move Only (0.65 mm)
G1 X37.7436 Y21.8217 E32.57492
G1 X37.9256 Y22.1182 ;  Move Only (0.35 mm)
G1 X38.2599 Y23.0937 ;  Move Only (1 mm)
G1 X38.2146 Y23.2146 E32.57649
G1 X38.1564 Y23.2833 E32.57813
G1 X38.1039 Y23.3272 E32.57959
G1 X38.0708 Y23.3463 E32.58052
G1 X38.4286 Y23.1397 ;  Move Only (0.41 mm)
G1 X38.7799 Y23.0961 ;  Move Only (0.35 mm)
G1 X39.0287 Y23.3404 E32.58901
G1 X39.2240 Y23.6293 E32.59749
G1 X39.4324 Y24.0158 E32.60818
G1 X39.4576 Y24.2462 E32.61382
G1 X39.4115 Y24.3054 ;  Move Only (0.075 mm)
G1 X39.1793 Y24.5076 ;  Move Only (0.31 mm)
G1 X39.0298 Y24.5939 ;  Move Only (0.17 mm)
G1 X38.9021 Y24.7518 E32.61876
G1 X38.9964 Y25.1399 ;  Move Only (0.4 mm)
G1 X39.3973 Y26.0330 ;  Move Only (0.98 mm)
G1 X39.3587 Y26.1524 E32.62029
G1 X39.3009 Y26.2238 E32.62197
G1 X39.2473 Y26.2696 E32.62347
G1 X39.2132 Y26.2893 E32.62443
G1 X39.7777 Y25.9634 ;  Move Only (0.65 mm)
G1 X39.9406 Y25.9620 E32.62839
G1 X40.0316 Y26.2635 ;  Move Only (0.32 mm)
G1 X40.0742 Y27.4529 ;  Move Only (1.2 mm)
G1 X40.0456 Y27.5722 ;  Move Only (0.12 mm)
G1 X40.0102 Y27.6082 E32.62962
G1 X39.8970 Y27.6959 E32.63310
G1 X39.8281 Y27.7356 E32.63504
G1 X39.4061 Y27.9793 ;  Move Only (0.49 mm)
G1 X39.2281 Y28.1854 E32.64166
G1 X39.2389 Y28.4546 ;  Move Only (0.27 mm)
G1 X39.2945 Y28.7183 ;  Move Only (0.27 mm)
G1 X39.5265 Y29.4924 ;  Move Only (0.81 mm)
G1 X39.5195 Y29.6538 ;  Move Only (0.16 mm)
G1 X39.4805 Y29.6990 E32.64312
G1 X39.3257 Y29.8270 E32.64801
G1 X39.2286 Y29.8831 E32.65074
G1 X38.6200 Y30.2345 ;  Move Only (0.7 mm)
G1 X38.5742 Y30.2609 E32.65202
G1 X38.2238 Y30.5444 E32.66299
G1 X37.9779 Y30.9221 ;  Move Only (0.45 mm)
G1 X37.5378 Y31.9062 ;  Move Only (1.1 mm)
G1 X37.2930 Y32.2857 ;  Move Only (0.45 mm)
G1 X36.9455 Y32.5742 E32.67398
G1 X35.8589 Y33.2262 E32.70482
G1 X35.6052 Y33.3982 E32.71228
G1 X35.3721 Y33.5973 E32.71974
G1 X35.2635 Y33.6088 E32.72240
G1 X35.2560 Y33.4022 ;  Move Only (0.21 mm)
G1 X35.3913 Y33.1366 ;  Move Only (0.3 mm)
G1 X35.6111 Y32.9352 E32.72965
G1 X37.0226 Y32.0449 E32.77026
G1 X36.9553 Y32.0241 E32.77198
G1 X35.6726 Y32.6580 E32.80680
G1 X35.2431 Y32.8365 E32.81812
G1 X34.7942 Y32.9577 ;  Move Only (0.47 mm)
G1 X33.7260 Y33.1724 ;  Move Only (1.1 mm)
G1 X33.4361 Y33.2557 ;  Move Only (0.3 mm)
G1 X33.1634 Y33.3848 E32.82546
G1 X32.8732 Y33.5524 E32.83361
G1 X32.3014 Y33.8825 ;  Move Only (0.66 mm)
G1 X31.9731 Y33.9459 E32.84175
G1 X31.6925 Y33.7706 ;  Move Only (0.33 mm)
G1 X31.4448 Y33.5512 ;  Move Only (0.33 mm)
G1 X30.9506 Y33.0340 ;  Move Only (0.72 mm)
G1 X30.8365 Y32.9754 ;  Move Only (0.13 mm)
G1 X30.7899 Y32.9844 E32.84291
G1 X30.6407 Y33.0400 E32.84678
G1 X30.5638 Y33.0844 E32.84894
G1 X30.1564 Y33.3196 ;  Move Only (0.47 mm)
G1 X29.9310 Y33.3454 E32.85446
G1 X29.6582 Y32.9946 ;  Move Only (0.44 mm)
G1 X29.2639 Y32.1906 ;  Move Only (0.9 mm)
G1 X29.1541 Y32.1572 E32.85586
G1 X29.0611 Y32.1679 E32.85757
G1 X29.0102 Y32.1847 E32.85871
G1 X28.9746 Y32.2006 E32.85960
G1 X28.9559 Y32.2114 E32.86013
G1 X28.6330 Y32.2879 ;  Move Only (0.33 mm)
G1 X28.3327 Y32.1531 E32.86814
G1 X28.0551 Y31.9762 E32.87615
G1 X27.6049 Y31.6410 E32.88981
G1 X27.4927 Y31.4003 E32.89627
G1 X27.5152 Y31.3639 ;  Move Only (0.043 mm)
G1 X27.7414 Y31.1442 ;  Move Only (0.32 mm)
G1 X27.9261 Y31.0046 ;  Move Only (0.23 mm)
G1 X27.9701 Y30.8310 E32.89845
G1 X27.4392 Y29.9666 E32.92314
G1 X27.1789 Y29.7751 E32.93100
G1 X27.0756 Y29.7895 ;  Move Only (0.1 mm)
G1 X26.6693 Y29.9289 ;  Move Only (0.43 mm)
G1 X26.5132 Y29.9360 ;  Move Only (0.16 mm)
G1 X26.3896 Y29.6588 E32.93839
G1 X26.1966 Y28.6002 E32.96457
G1 X26.2165 Y28.4439 E32.96841
G1 X26.2579 Y28.3987 ;  Move Only (0.061 mm)
G1 X26.4061 Y28.2795 ;  Move Only (0.19 mm)
G1 X26.4978 Y28.2266 ;  Move Only (0.11 mm)
G1 X26.6259 Y28.0652 E32.97342
G1 X26.5178 Y27.6750 ;  Move Only (0.4 mm)
G1 X26.0988 Y26.8257 ;  Move Only (0.95 mm)
G1 X25.9797 Y26.7895 E32.97494
G1 X25.8790 Y26.8011 E32.97679
G1 X25.8238 Y26.8194 E32.97802
G1 X25.7853 Y26.8366 E32.97899
G1 X25.7651 Y26.8483 E32.97955
G1 X26.4097 Y26.4761 ;  Move Only (0.74 mm)
G1 X26.5716 Y26.2795 E32.98575
G1 X26.5423 Y26.0296 ;  Move Only (0.25 mm)
G1 X26.4689 Y25.7890 ;  Move Only (0.25 mm)
G1 X26.1617 Y25.0317 ;  Move Only (0.82 mm)
G1 X26.1576 Y24.8812 ;  Move Only (0.15 mm)
G1 X26.1910 Y24.8406 E32.98703
G1 X26.3381 Y24.7161 E32.99172
G1 X26.4314 Y24.6622 E32.99434
G1 X26.9071 Y24.3876 ;  Move Only (0.55 mm)
G1 X27.2524 Y24.1177 E33.00501
G1 X27.5099 Y23.7631 ;  Move Only (0.44 mm)
G1 X28.0921 Y22.6671 ;  Move Only (1.2 mm)
G1 X28.2743 Y22.4379 ;  Move Only (0.29 mm)
G1 X28.5266 Y22.2892 E33.01213
G1 X28.6923 Y22.1206 E33.01789
G1 X28.5399 Y21.6853 ;  Move Only (0.46 mm)
G1 X27.9322 Y20.7147 ;  Move Only (1.1 mm)
G1 X24.2873 Y16.6300 ;  Move Only (5.5 mm)
G1 X24.1793 Y16.3003 ;  Move Only (0.35 mm)
G1 X24.3750 Y16.0205 ;  Move Only (0.34 mm)
G1 X24.6238 Y15.7867 ;  Move Only (0.34 mm)
G1 X25.1130 Y15.4136 ;  Move Only (0.62 mm)
G1 X25.7258 Y15.0361 ;  Move Only (0.72 mm)
G1 X25.9897 Y14.7320 ;  Move Only (0.4 mm)
G1 X26.0022 Y14.3330 ;  Move Only (0.4 mm)
G1 X25.9541 Y13.9367 ;  Move Only (0.4 mm)
G1 X25.9191 Y13.7611 ;  Move Only (0.18 mm)
G1 X25.7285 Y13.5210 ;  Move Only (0.31 mm)
G1 X25.4327 Y13.5711 E33.02519
G1 X25.1569 Y13.6893 E33.03249
G1 X24.8984 Y13.8386 E33.03976
G1 X24.9016 Y13.8261 E33.04007
G1 X25.4823 Y13.4756 E33.05658
G1 X25.8277 Y13.3021 E33.06599
G1 X27.2330 Y12.6760 ;  Move Only (1.5 mm)
G1 X27.2163 Y12.7291 E33.06700
G1 X22.8060 Y15.1465 E33.18939
G1 X22.8129 Y15.1195 E33.19007
G1 X27.1743 Y12.4875 E33.31404
G1 X27.5125 Y12.4465 E33.32233
G1 X27.7388 Y12.6936 ;  Move Only (0.34 mm)
G1 X27.9082 Y12.9826 ;  Move Only (0.34 mm)
G1 X28.0916 Y13.3881 ;  Move Only (0.45 mm)
G1 X28.3571 Y13.6535 ;  Move Only (0.38 mm)
G1 X28.3907 Y13.6557 ;  Move Only (0.034 mm)
G1 X28.7282 Y13.6466 ;  Move Only (0.34 mm)
G1 X29.0586 Y13.5772 ;  Move Only (0.34 mm)
G1 X29.4181 Y13.4670 ;  Move Only (0.38 mm)
G1 X30.5768 Y13.2174 ;  Move Only (1.2 mm)
G1 X31.5068 Y13.0984 ;  Move Only (0.94 mm)
G1 X32.9358 Y13.0162 ;  Move Only (1.4 mm)
G1 X34.1235 Y13.0669 ;  Move Only (1.2 mm)
G1 X35.2993 Y13.2174 ;  Move Only (1.2 mm)
G1 X36.4582 Y13.4670 ;  Move Only (1.2 mm)
G1 X37.5918 Y13.8145 ;  Move Only (1.2 mm)
G1 X38.6937 Y14.2570 ;  Move Only (1.2 mm)
G1 X39.5293 Y14.6785 ;  Move Only (0.94 mm)
G1 X40.7593 Y15.4108 ;  Move Only (1.4 mm)
G1 X41.7153 Y16.1179 ;  Move Only (1.2 mm)
G1 X42.6046 Y16.9006 ;  Move Only (1.2 mm)
G1 X43.4257 Y17.7572 ;  Move Only (1.2 mm)
G1 X44.1702 Y18.6792 ;  Move Only (1.2 mm)
G1 X44.8348 Y19.6627 ;  Move Only (1.2 mm)
G1 X45.2918 Y20.4806 ;  Move Only (0.94 mm)
G1 X45.7103 Y21.3709 ;  Move Only (0.98 mm)
G1 X45.9684 Y21.6825 ;  Move Only (0.4 mm)
G1 X46.1268 Y21.7445 ;  Move Only (0.17 mm)
G1 X46.5779 Y21.8584 ;  Move Only (0.47 mm)
G1 X46.7118 Y21.8746 ;  Move Only (0.13 mm)
G1 X46.8300 Y21.8699 ;  Move Only (0.12 mm)
G1 X46.9406 Y21.8279 E33.32521
G1 X46.9225 Y21.7621 E33.32604
G1 X46.3687 Y21.7697 ;  Move Only (0.55 mm)
G1 X46.0977 Y21.9134 ;  Move Only (0.31 mm)
G1 X46.0929 Y22.2136 ;  Move Only (0.3 mm)
G1 X46.1588 Y22.5065 ;  Move Only (0.3 mm)
G1 X46.2963 Y22.8958 ;  Move Only (0.41 mm)
G1 X46.5954 Y24.0440 ;  Move Only (1.2 mm)
G1 X46.7955 Y25.2123 ;  Move Only (1.2 mm)
G1 X46.8962 Y26.3945 ;  Move Only (1.2 mm)
G1 Y27.5799 ;  Move Only (1.2 mm)
G1 X46.7955 Y28.7618 ;  Move Only (1.2 mm)
G1 X46.5954 Y29.9302 ;  Move Only (1.2 mm)
G1 X46.2963 Y31.0784 ;  Move Only (1.2 mm)
G1 X45.9839 Y31.9624 ;  Move Only (0.94 mm)
G1 X45.4140 Y33.2749 ;  Move Only (1.4 mm)
G1 X44.8349 Y34.3114 ;  Move Only (1.2 mm)
G1 X44.1702 Y35.2951 ;  Move Only (1.2 mm)
G1 X43.4257 Y36.2171 ;  Move Only (1.2 mm)
G1 X42.6046 Y37.0737 ;  Move Only (1.2 mm)
G1 X41.7153 Y37.8565 ;  Move Only (1.2 mm)
G1 X41.1374 Y38.2838 ;  Move Only (0.72 mm)
G1 X40.9464 Y38.5939 ;  Move Only (0.36 mm)
G1 X40.9600 Y38.6569 ;  Move Only (0.064 mm)
G1 X41.0495 Y38.9386 ;  Move Only (0.3 mm)
G1 X41.1909 Y39.1982 ;  Move Only (0.3 mm)
G1 X41.3351 Y39.4116 ;  Move Only (0.26 mm)
G1 X41.3963 Y39.4221 E33.32680
G1 X41.4447 Y39.4105 E33.32771
G1 X41.4705 Y39.3985 E33.32831
G1 X41.4882 Y39.3880 E33.32878
G1 X41.4875 Y39.3869 E33.32881
G1 X39.8355 Y40.3406 E33.37524
G1 X39.8705 Y40.3516 E33.37613
G1 X40.2862 Y40.1424 E33.38745
G1 X41.3755 Y39.4714 E33.41859
; Layer S2 ; Layer at Z=0.702 No=2, thickn=0.26, 1 skins, 4 polys, 2 shells, 0 fullfill polys, 0 bridge polys, 0 skin fullfill polys, 0 support polys, infill:  normal 4, full 0, support 0, skinfills 0 prev.No=1
M106 S206
; Shell
G1 X21.7456 Y14.6525 Z0.7020 ;  Z-Change Move Only (32 mm)
G1 X20.8230 Y15.5573 E33.44629 F3139
G1 X19.9745 Y16.5299 E33.47395
G1 X19.2020 Y17.5673 E33.50168
G1 X18.5147 Y18.6576 E33.52930
G1 X17.9114 Y19.8032 E33.55705
G1 X17.4001 Y20.9885 E33.58472
G1 X16.9822 Y22.2096 E33.61239
G1 X16.6813 Y23.3779 E33.63825
G1 X16.4355 Y24.7323 E33.66775
G1 X16.3105 Y26.0187 E33.69546
G1 X16.2854 Y27.3092 E33.72312
G1 X16.3605 Y28.5987 E33.75081
G1 X16.5237 Y29.7939 E33.77667
G1 X16.8089 Y31.1422 E33.80621
G1 X17.1795 Y32.3802 E33.83391
G1 X17.6437 Y33.5828 E33.86154
G1 X18.2010 Y34.7479 E33.88922
G1 X18.8484 Y35.8691 E33.91697
G1 X19.5286 Y36.8610 E33.94275
G1 X20.3903 Y37.9402 E33.97235
G1 X21.2745 Y38.8772 E33.99997
G1 X22.1674 Y39.6875 E34.02581
G1 X23.2537 Y40.5379 E34.05538
G1 X24.3322 Y41.2473 E34.08305
G1 X25.4633 Y41.8713 E34.11074
G1 X26.6384 Y42.4057 E34.13841
G1 X27.8533 Y42.8477 E34.16612
G1 X29.0129 Y43.1706 E34.19192
G1 X30.3648 Y43.4428 E34.22148
G1 X31.6464 Y43.5927 E34.24914
G1 X32.9381 Y43.6429 E34.27685
G1 X34.2297 Y43.5927 E34.30455
G1 X35.5111 Y43.4429 E34.33221
G1 X36.7801 Y43.1938 E34.35993
G1 X38.0229 Y42.8477 E34.38758
G1 X39.2378 Y42.4057 E34.41529
G1 X40.4128 Y41.8713 E34.44296
G1 X41.5440 Y41.2473 E34.47065
G1 X42.6228 Y40.5376 E34.49833
G1 X43.6442 Y39.7460 E34.52603
G1 X44.6016 Y38.8772 E34.55374
G1 X45.4863 Y37.9395 E34.58137
G1 X46.2979 Y36.9334 E34.60908
G1 X47.0290 Y35.8676 E34.63678
G1 X47.6741 Y34.7499 E34.66444
G1 X48.2321 Y33.5832 E34.69216
G1 X48.6970 Y32.3791 E34.71983
G1 X49.0425 Y31.2246 E34.74566
G1 X49.3406 Y29.8795 E34.77519
G1 X49.5156 Y28.5994 E34.80289
G1 X49.5906 Y27.3092 E34.83059
G1 X49.5656 Y26.0187 E34.85825
G1 X49.4405 Y24.7320 E34.88596
G1 X49.2167 Y23.4626 E34.91359
G1 X48.8938 Y22.2092 E34.94134
G1 X48.4761 Y20.9886 E34.96899
G1 X47.9643 Y19.8021 E34.99669
G1 X47.3620 Y18.6585 E35.02439
G1 X46.6742 Y17.5674 E35.05204
G1 X45.9018 Y16.5298 E35.07976
G1 X45.0531 Y15.5573 E35.10743
G1 X44.1305 Y14.6525 E35.13513
G1 X43.1420 Y13.8231 E35.16279
G1 X42.1617 Y13.1224 E35.18861
G1 X40.9837 Y12.4034 E35.21820
G1 X39.8313 Y11.8249 E35.24583
G1 X38.6338 Y11.3355 E35.27356
G1 X37.4056 Y10.9416 E35.30121
G1 X36.2323 Y10.6637 E35.32705
G1 X34.8706 Y10.4439 E35.35662
G1 X33.5844 Y10.3440 E35.38427
G1 X32.2917 E35.41198
G1 X31.0045 Y10.4439 E35.43965
G1 X29.8159 Y10.6299 E35.46544
G1 X28.4701 Y10.9419 E35.49505
G1 X27.2423 Y11.3355 E35.52269
G1 X26.0449 Y11.8249 E35.55042
G1 X24.8913 Y12.4042 E35.57809
G1 X23.7861 Y13.0712 E35.60576
G1 X22.7342 Y13.8231 E35.63347
G1 X21.7456 Y14.6525 E35.66113
G1 X22.0603 Y14.9991 F10800 ;  Move Only (0.47 mm)
G1 X21.7457 Y14.6526 ;  Move Only (0.47 mm)
G1 X21.8718 Y14.9936 ;  Move Only (0.36 mm)
G1 X21.6974 Y15.3069 E35.66882 F3050
G1 X21.4666 Y15.5813 E35.67650
G1 X21.1645 Y15.8775 E35.68557
G1 X20.3385 Y16.8243 E35.71250
G1 X19.5876 Y17.8329 E35.73945
G1 X18.9202 Y18.8914 E35.76628
G1 X18.3338 Y20.0049 E35.79325
G1 X17.8365 Y21.1576 E35.82016
G1 X17.4308 Y22.3432 E35.84702
G1 X17.1384 Y23.4785 E35.87215
G1 X16.8992 Y24.7959 E35.90085
G1 X16.7777 Y26.0455 E35.92776
G1 X16.7536 Y27.2999 E35.95465
G1 X16.8262 Y28.5531 E35.98156
G1 X16.9847 Y29.7136 E36.00666
G1 X17.2626 Y31.0266 E36.03543
G1 X17.6226 Y32.2289 E36.06233
G1 X18.0731 Y33.3963 E36.08915
G1 X18.6146 Y34.5289 E36.11606
G1 X19.2445 Y35.6196 E36.14306
G1 X19.9058 Y36.5838 E36.16812
G1 X20.7435 Y37.6330 E36.19690
G1 X21.6013 Y38.5420 E36.22369
G1 X22.4697 Y39.3300 E36.24882
G1 X23.5269 Y40.1577 E36.27760
G1 X24.5733 Y40.8461 E36.30445
G1 X25.6745 Y41.4535 E36.33141
G1 X26.8145 Y41.9720 E36.35825
G1 X27.9960 Y42.4018 E36.38520
G1 X29.1223 Y42.7154 E36.41026
G1 X30.4391 Y42.9805 E36.43905
G1 X31.6821 Y43.1259 E36.46588
G1 X32.9381 Y43.1748 E36.49282
G1 X34.1942 Y43.1259 E36.51976
G1 X35.4376 Y42.9806 E36.54659
G1 X36.6722 Y42.7382 E36.57356
G1 X37.8801 Y42.4018 E36.60044
G1 X39.0616 Y41.9720 E36.62739
G1 X40.2016 Y41.4535 E36.65423
G1 X41.3016 Y40.8469 E36.68116
G1 X42.3514 Y40.1562 E36.70809
G1 X43.3427 Y39.3877 E36.73498
G1 X44.2747 Y38.5420 E36.76195
G1 X45.1331 Y37.6322 E36.78877
G1 X45.9224 Y36.6540 E36.81571
G1 X46.6331 Y35.6178 E36.84264
G1 X47.2597 Y34.5320 E36.86951
G1 X47.8025 Y33.3970 E36.89648
G1 X48.2539 Y32.2279 E36.92334
G1 X48.5898 Y31.1054 E36.94845
G1 X48.8795 Y29.7973 E36.97717
G1 X49.0495 Y28.5542 E37.00407
G1 X49.1223 Y27.2999 E37.03100
G1 X49.0983 Y26.0455 E37.05789
G1 X48.9765 Y24.7938 E37.08485
G1 X48.7593 Y23.5628 E37.11164
G1 X48.4452 Y22.3429 E37.13864
G1 X48.0398 Y21.1581 E37.16548
G1 X47.5418 Y20.0038 E37.19243
G1 X46.9561 Y18.8918 E37.21937
G1 X46.2880 Y17.8319 E37.24622
G1 X45.5376 Y16.8238 E37.27316
G1 X44.7117 Y15.8776 E37.30008
G1 X43.8157 Y14.9989 E37.32698
G1 X42.8565 Y14.1941 E37.35382
G1 X41.9028 Y13.5124 E37.37895
G1 X40.7561 Y12.8124 E37.40774
G1 X39.6377 Y12.2510 E37.43457
G1 X38.4741 Y11.7755 E37.46151
G1 X37.2802 Y11.3926 E37.48838
G1 X36.1398 Y11.1225 E37.51350
G1 X34.8154 Y10.9088 E37.54226
G1 X33.5664 Y10.8117 E37.56911
G1 X32.3095 E37.59605
G1 X31.0593 Y10.9088 E37.62293
G1 X29.9052 Y11.0894 E37.64797
G1 X28.5941 Y11.3933 E37.67682
G1 X27.4027 Y11.7752 E37.70363
G1 X26.2380 Y12.2514 E37.73061
G1 X25.1179 Y12.8137 E37.75747
G1 X24.0437 Y13.4621 E37.78436
G1 X23.0198 Y14.1941 E37.81134
G1 X22.4188 Y14.6983 E37.82816
G1 X22.2294 Y15.0281 E37.83631
G1 X22.3293 Y15.3906 F10800 ;  Move Only (0.38 mm)
G1 X22.4910 Y15.7300 ;  Move Only (0.38 mm)
G1 X22.7977 Y16.2504 ;  Move Only (0.6 mm)
G1 X23.0700 Y16.4360 ;  Move Only (0.33 mm)
G1 X23.3691 Y16.3125 E37.84325 F2697
G1 X23.6340 Y16.1266 E37.85018
G1 X23.9455 Y15.8524 E37.85908
G1 X24.9239 Y15.1288 E37.88516
G1 X25.8913 Y14.5329 E37.90952
G1 X27.0395 Y13.9464 E37.93715
G1 X28.1709 Y13.4919 E37.96329
G1 X29.3320 Y13.1360 E37.98932
G1 X30.5190 Y12.8805 E38.01534
G1 X31.7228 Y12.7263 E38.04136
G1 X32.9381 Y12.6748 E38.06743
G1 X34.0734 Y12.7231 E38.09179
G1 X35.3558 Y12.8800 E38.11948
G1 X36.5441 Y13.1360 E38.14553
G1 X37.7074 Y13.4926 E38.17161
G1 X38.8314 Y13.9443 E38.19758
G1 X39.9188 Y14.4923 E38.22368
G1 X40.9522 Y15.1288 E38.24969
G1 X41.9298 Y15.8520 E38.27576
G1 X42.8415 Y16.6544 E38.30179
G1 X43.6281 Y17.4746 E38.32615
G1 X44.4434 Y18.4737 E38.35379
G1 X45.1264 Y19.4842 E38.37994
G1 X45.7173 Y20.5424 E38.40591
G1 X46.2188 Y21.6517 E38.43201
G1 X46.6233 Y22.7960 E38.45802
G1 X46.9295 Y23.9718 E38.48407
G1 X47.1210 Y25.0901 E38.50839
G1 X47.2377 Y26.3786 E38.53612
G1 Y27.5941 E38.56217
G1 X47.1345 Y28.8056 E38.58823
G1 X46.9294 Y30.0026 E38.61426
G1 X46.6233 Y31.1783 E38.64031
G1 X46.2188 Y32.3225 E38.66632
G1 X45.7502 Y33.3591 E38.69070
G1 X45.1264 Y34.4901 E38.71839
G1 X44.4449 Y35.4979 E38.74446
G1 X43.6823 Y36.4426 E38.77049
G1 X42.8419 Y37.3194 E38.79652
G1 X41.9277 Y38.1241 E38.82263
G1 X40.9539 Y38.8446 E38.84859
G1 X39.9171 Y39.4829 E38.87469
G1 X38.8344 Y40.0289 E38.90068
G1 X37.7063 Y40.4819 E38.92674
G1 X36.5440 Y40.8381 E38.95279
G1 X35.3570 Y41.0938 E38.97882
G1 X34.2304 Y41.2379 E39.00317
G1 X32.9407 Y41.2993 E39.03084
G1 X31.7232 Y41.2478 E39.05696
G1 X30.5190 Y41.0938 E39.08298
G1 X29.3320 Y40.8381 E39.10901
G1 X28.1691 Y40.4818 E39.13508
G1 X27.0443 Y40.0297 E39.16106
G1 X26.0283 Y39.5177 E39.18545
G1 X24.9245 Y38.8458 E39.21315
G1 X23.9473 Y38.1228 E39.23920
G1 X23.0346 Y37.3200 E39.26526
G1 X22.1937 Y36.4426 E39.29131
G1 X21.4316 Y35.4987 E39.31731
G1 X20.7500 Y34.4904 E39.34340
G1 X20.1966 Y33.4999 E39.36772
G1 X19.6582 Y32.3257 E39.39541
G1 X19.2528 Y31.1781 E39.42149
G1 X18.9468 Y30.0026 E39.44753
G1 X18.7417 Y28.8056 E39.47356
G1 X18.6385 Y27.5941 E39.49962
G1 Y26.3802 E39.52564
G1 X18.7417 Y25.1685 E39.55171
G1 X18.9465 Y23.9722 E39.57772
G1 X19.2331 Y22.8728 E39.60208
G1 X19.6570 Y21.6519 E39.62978
G1 X20.1584 Y20.5434 E39.65586
G1 X20.7498 Y19.4842 E39.68186
G1 X21.4313 Y18.4760 E39.70794
G1 X22.1945 Y17.5310 E39.73398
G1 X22.8810 Y16.8146 E39.75525
G1 X23.0353 Y16.7488 E39.75884
G1 X23.0821 Y16.7688 F10800 ;  Move Only (0.051 mm)
G1 X23.2199 Y16.8643 ;  Move Only (0.17 mm)
G1 X23.3125 Y16.9433 ;  Move Only (0.12 mm)
G1 X23.3590 Y16.9919 ;  Move Only (0.067 mm)
G1 X24.2402 Y16.2162 E39.78401 F2609
G1 X23.3590 Y16.9919 F10800 ;  Move Only (1.2 mm)
G1 X24.2402 Y16.2162 E39.80917 F2609
G1 X25.1859 Y15.5169 E39.83438
G1 X26.1203 Y14.9414 E39.85790
G1 X27.2344 Y14.3723 E39.88472
G1 X28.3264 Y13.9336 E39.90994
G1 X29.4498 Y13.5893 E39.93513
G1 X30.5983 Y13.3420 E39.96031
G1 X31.7632 Y13.1928 E39.98548
G1 X32.9381 Y13.1429 E40.01069
G1 X34.0347 Y13.1896 E40.03422
G1 X35.2775 Y13.3419 E40.06105
G1 X36.4264 Y13.5893 E40.08625
G1 X37.5507 Y13.9339 E40.11145
G1 X38.6395 Y14.3714 E40.13660
G1 X39.6902 Y14.9010 E40.16182
G1 X40.6903 Y15.5169 E40.18700
G1 X41.6351 Y16.2158 E40.21219
G1 X42.5178 Y16.9926 E40.23739
G1 X43.2772 Y17.7847 E40.26091
G1 X44.0681 Y18.7536 E40.28772
G1 X44.7273 Y19.7291 E40.31296
G1 X45.2996 Y20.7538 E40.33811
G1 X45.7842 Y21.8258 E40.36333
G1 X46.1756 Y22.9332 E40.38851
G1 X46.4717 Y24.0703 E40.41369
G1 X46.6570 Y25.1515 E40.43721
G1 X46.7699 Y26.3993 E40.46406
G1 Y27.5745 E40.48925
G1 X46.6702 Y28.7459 E40.51445
G1 X46.4717 Y29.9040 E40.53964
G1 X46.1756 Y31.0411 E40.56482
G1 X45.7842 Y32.1486 E40.59000
G1 X45.3319 Y33.1493 E40.61354
G1 X44.7274 Y34.2451 E40.64036
G1 X44.0684 Y35.2198 E40.66558
G1 X43.3307 Y36.1336 E40.69076
G1 X42.5177 Y36.9818 E40.71594
G1 X41.6344 Y37.7591 E40.74116
G1 X40.6911 Y38.4570 E40.76631
G1 X39.6893 Y39.0737 E40.79153
G1 X38.6405 Y39.6026 E40.81670
G1 X37.5507 Y40.0404 E40.84188
G1 X36.4263 Y40.3849 E40.86708
G1 X35.2779 Y40.6324 E40.89226
G1 X34.1894 Y40.7716 E40.91579
G1 X32.9392 Y40.8313 E40.94261
