; generated by Slic3r 1.2.9 on 2016-12-14 at 11:58:44

; external perimeters extrusion width = 0.40mm
; perimeters extrusion width = 0.56mm
; infill extrusion width = 0.56mm
; solid infill extrusion width = 0.56mm
; top infill extrusion width = 0.56mm

M107
M104 S250 ; set temperature
G28 ; home all axes
G1 Z5 F5000 ; lift nozzle

M109 S250 ; wait for temperature to be reached
G21 ; set units to millimeters
G90 ; use absolute coordinates
M82 ; use absolute distances for extrusion
G92 E0
G1 Z0.400 F7800.000
G1 E-2.00000 F2400.00000
G92 E0
G1 X41.749 Y63.762 F7800.000
G1 E2.00000 F2400.00000
G1 X92.753 Y30.367 E8.47879 F1800.000
G1 X94.873 Y29.454 E8.72417
G1 X97.178 Y29.312 E8.96955
G1 X99.394 Y29.960 E9.21493
G1 X100.638 Y30.752 E9.37167 F1800.000
G1 X154.593 Y74.137 E16.72935
G1 X156.402 Y76.390 E17.03647
G1 X175.396 Y114.750 E21.58551
G1 X175.689 Y115.405 E21.66167
G1 X175.989 Y116.234 E21.75542
G1 X176.212 Y117.033 E21.84358
G1 X176.379 Y117.859 E21.93316
G1 X176.517 Y118.961 E22.05111
G1 X176.566 Y119.886 E22.14954
G1 X176.533 Y122.999 E22.48039
G1 X176.100 Y125.267 E22.72577
G1 X174.924 Y127.254 E22.97115
G1 X173.624 Y128.425 E23.15711
G1 X124.511 Y162.198 E29.49139
G1 X123.964 Y162.551 E29.56059
G1 X121.597 Y163.984 E29.85468
G1 X120.804 Y164.395 E29.94962
G1 X113.216 Y167.702 E30.82924
G1 X112.547 Y167.952 E30.90511
G1 X108.856 Y169.112 E31.31635
G1 X107.601 Y169.378 E31.45263
G1 X96.110 Y170.686 E32.68174
G1 X94.747 Y170.702 E32.82659
G1 X91.498 Y170.409 E33.17327
G1 X88.576 Y170.119 E33.48535
G1 X85.985 Y169.810 E33.76266
G1 X85.361 Y169.705 E33.82990
G1 X78.905 Y168.308 E34.53188
G1 X77.736 Y167.941 E34.66205
G1 X73.585 Y166.202 E35.14037
G1 X67.538 Y163.437 E35.84694
G1 X65.857 Y162.338 E36.06041
G1 X57.528 Y154.896 E37.24743
G1 X56.950 Y154.361 E37.33113
G1 X55.006 Y152.334 E37.62958
G1 X29.901 Y123.401 E41.70055
G1 X29.477 Y122.891 E41.77100
G1 X29.061 Y122.351 E41.84343
G1 X28.557 Y121.642 E41.93594
G1 X28.153 Y121.020 E42.01464
G1 X27.809 Y120.446 E42.08575
G1 X27.409 Y119.719 E42.17396
G1 X27.091 Y119.088 E42.24908
G1 X26.689 Y118.203 E42.35237
G1 X26.418 Y117.543 E42.42820
G1 X26.116 Y116.727 E42.52071
G1 X25.877 Y116.008 E42.60126
G1 X25.611 Y115.111 E42.70058
G1 X25.375 Y114.191 E42.80156
G1 X25.168 Y113.255 E42.90340
G1 X24.993 Y112.323 E43.00422
G1 X24.738 Y110.532 E43.19650
G1 X24.614 Y109.217 E43.33680
G1 X23.436 Y83.531 E46.06939
G1 X23.449 Y79.339 E46.51497
G1 X23.858 Y77.066 E46.76035
G1 X25.013 Y75.067 E47.00573
G1 X26.485 Y73.757 E47.21518
G1 X41.699 Y63.795 E49.14773
G1 E47.14773 F2400.00000
G92 E0
G1 X88.089 Y88.779 F7800.000
G1 E2.00000 F2400.00000
G1 X86.042 Y89.369 E2.22631 F1800.000
G1 X84.931 Y89.751 E2.35118
G1 X83.838 Y90.175 E2.47584
G1 X82.760 Y90.641 E2.60062
G1 X81.186 Y91.413 E2.78691
G1 X80.160 Y91.981 E2.91151
G1 X79.160 Y92.588 E3.03582
G1 X77.894 Y93.425 E3.19713
G1 X77.117 Y93.989 E3.29915
G1 X76.076 Y94.804 E3.43964
G1 X74.930 Y95.795 E3.60072
G1 X74.232 Y96.451 E3.70248
G1 X73.305 Y97.389 E3.84265
G1 X72.294 Y98.513 E4.00331
G1 X71.685 Y99.249 E4.10485
G1 X70.886 Y100.293 E4.24449
G1 X70.325 Y101.084 E4.34761
G1 X69.490 Y102.378 E4.51124
G1 X68.823 Y103.527 E4.65247
G1 X68.364 Y104.397 E4.75699
G1 X67.790 Y105.593 E4.89802
G1 X67.196 Y107.009 E5.06117
G1 X66.858 Y107.932 E5.16558
G1 X66.451 Y109.191 E5.30625
G1 X66.190 Y110.138 E5.41061
G1 X65.890 Y111.426 E5.55118
G1 X65.609 Y112.876 E5.70809
G1 X65.391 Y114.281 E5.85926
G1 X65.250 Y115.696 E6.01037
G1 X65.199 Y116.589 E6.10542
G1 X65.178 Y118.009 E6.25632
G1 X65.220 Y119.251 E6.38837
G1 X65.282 Y120.142 E6.48331
G1 X65.441 Y121.554 E6.63436
G1 X65.670 Y122.960 E6.78569
G1 X65.981 Y124.409 E6.94318
G1 X66.309 Y125.640 E7.07861
G1 X66.585 Y126.553 E7.17992
G1 X67.076 Y127.952 E7.33750
G1 X67.556 Y129.137 E7.47334
G1 X68.175 Y130.485 E7.63101
G1 X68.610 Y131.335 E7.73251
G1 X69.233 Y132.451 E7.86829
G1 X70.019 Y133.713 E8.02628
G1 X70.855 Y134.919 E8.18225
G1 X71.293 Y135.504 E8.25999
G1 X72.206 Y136.630 E8.41401
G1 X72.811 Y137.317 E8.51128
G1 X73.683 Y138.238 E8.64605
G1 X74.730 Y139.245 E8.80043
G1 X75.415 Y139.855 E8.89791
G1 X76.539 Y140.779 E9.05258
G1 X77.708 Y141.650 E9.20753
G1 X78.762 Y142.364 E9.34280
G1 X79.580 Y142.878 E9.44542
G1 X80.887 Y143.626 E9.60549
G1 X82.042 Y144.220 E9.74355
G1 X82.918 Y144.631 E9.84633
G1 X84.115 Y145.140 E9.98457
G1 X85.530 Y145.667 E10.14504
G1 X86.452 Y145.967 E10.24811
G1 X87.705 Y146.327 E10.38662
G1 X89.180 Y146.675 E10.54769
G1 X90.776 Y146.970 E10.72013
G1 X93.885 Y147.270 E11.05213
G1 X93.874 Y147.249 E11.05471
G1 X95.174 Y147.283 E11.19298
G1 X96.452 Y147.290 E11.32879
G1 X97.841 Y147.208 E11.47664
G1 X99.307 Y147.078 E11.63307
G1 X99.302 Y147.095 E11.63495
G1 X101.439 Y146.744 E11.86512
G1 X102.941 Y146.416 E12.02854
G1 X104.422 Y146.006 E12.19178
G1 X105.158 Y145.768 E12.27404
G1 X106.640 Y145.233 E12.44145
G1 X108.134 Y144.614 E12.61335
G1 X109.592 Y143.913 E12.78519
G1 X111.005 Y143.136 E12.95660
G1 X111.871 Y142.610 E13.06434
G1 X113.214 Y141.711 E13.23599
G1 X114.338 Y140.874 E13.38501
G1 X115.126 Y140.240 E13.49243
G1 X116.335 Y139.176 E13.66356
G1 X117.018 Y138.522 E13.76409
G1 X118.008 Y137.499 E13.91539
G1 X118.564 Y136.879 E14.00393
G1 X119.617 Y135.605 E14.17954
G1 X120.599 Y134.275 E14.35524
G1 X121.503 Y132.896 E14.53045
G1 X121.928 Y132.184 E14.61860
G1 X122.523 Y131.102 E14.74989
G1 X123.023 Y130.098 E14.86906
G1 X123.366 Y129.344 E14.95710
G1 X123.876 Y128.079 E15.10199
G1 X132.701 Y128.104 E16.03986
G1 X132.433 Y128.969 E16.13613
G1 X131.957 Y130.323 E16.28871
G1 X131.429 Y131.659 E16.44134
G1 X130.851 Y132.975 E16.59405
G1 X130.223 Y134.268 E16.74683
G1 X129.548 Y135.538 E16.89969
G1 X128.825 Y136.783 E17.05264
G1 X127.951 Y138.169 E17.22680
G1 X128.207 Y138.918 E17.31095
G1 X127.575 Y138.720 E17.38137
G1 X126.368 Y140.375 E17.59898
G1 X124.947 Y142.132 E17.83920
G1 X123.722 Y143.475 E18.03236
G1 X122.428 Y144.768 E18.22679
G1 X121.322 Y145.787 E18.38656
G1 X120.176 Y146.762 E18.54644
G1 X118.559 Y148.031 E18.76497
G1 X117.898 Y148.487 E18.85028
G1 X117.750 Y148.946 E18.90148
G1 X117.607 Y149.217 E18.93408
G1 X117.496 Y149.372 E18.95433
G1 X117.229 Y149.660 E18.99609
G1 X116.727 Y150.056 E19.06407
G1 X115.218 Y150.987 E19.25253
G1 X114.310 Y151.635 E19.37104
G1 X113.873 Y150.945 E19.45783
G1 X112.231 Y151.750 E19.65216
G1 X110.427 Y152.553 E19.86200
G1 X108.348 Y153.322 E20.09755
G1 X106.673 Y153.860 E20.28450
G1 X104.976 Y154.324 E20.47156
G1 X102.808 Y154.814 E20.70777
G1 X101.905 Y154.963 E20.80495
G1 X100.002 Y155.235 E21.00927
G1 X98.984 Y155.341 E21.11802
G1 X97.293 Y155.473 E21.29832
G1 X95.388 Y155.502 E21.50075
G1 X95.046 Y155.692 E21.54238
G1 X94.682 Y155.837 E21.58398
G1 X94.306 Y155.931 E21.62522
G1 X93.903 Y155.983 E21.66841
G1 X93.256 Y155.999 E21.73711
G1 X91.514 Y155.898 E21.92257
G1 X90.383 Y155.886 E22.04278
G1 X90.461 Y155.165 E22.11982
G1 X88.198 Y154.794 E22.36351
G1 X86.715 Y154.487 E22.52452
G1 X85.502 Y154.192 E22.65720
G1 X84.299 Y153.858 E22.78985
G1 X82.794 Y153.387 E22.95745
G1 X81.230 Y152.805 E23.13477
G1 X79.905 Y152.258 E23.28708
G1 X78.742 Y151.730 E23.42292
G1 X77.089 Y150.912 E23.61884
G1 X75.344 Y149.909 E23.83276
G1 X74.054 Y149.099 E23.99460
G1 X72.798 Y148.241 E24.15633
G1 X71.109 Y146.988 E24.37980
G1 X69.339 Y145.469 E24.62770
G1 X68.677 Y144.858 E24.72341
G1 X68.030 Y144.233 E24.81904
G1 X66.521 Y142.667 E25.05012
G1 X65.017 Y140.869 E25.29920
G1 X65.000 Y140.874 E25.30102
G1 X63.742 Y139.155 E25.52741
G1 X62.986 Y138.041 E25.67045
G1 X62.269 Y136.903 E25.81341
G1 X61.284 Y135.209 E26.02163
G1 X60.232 Y133.091 E26.27302
G1 X59.559 Y131.500 E26.45651
G1 X59.148 Y130.439 E26.57750
G1 X58.770 Y129.366 E26.69840
G1 X58.269 Y127.789 E26.87425
G1 X57.754 Y125.707 E27.10216
G1 X57.419 Y123.992 E27.28785
G1 X57.169 Y122.263 E27.47352
G1 X56.939 Y119.777 E27.73878
G1 X55.768 Y120.704 E27.89748
G1 X55.013 Y121.231 E27.99530
G1 X54.380 Y121.619 E28.07429
G1 X53.726 Y121.974 E28.15333
G1 X52.892 Y122.366 E28.25131
G1 X52.200 Y122.647 E28.33060
G1 X51.495 Y122.893 E28.40996
G1 X50.528 Y123.170 E28.51688
G1 X49.544 Y123.387 E28.62399
G1 X48.805 Y123.508 E28.70360
G1 X47.799 Y123.618 E28.81114
G1 X47.106 Y123.658 E28.88487
G1 X46.125 Y123.663 E28.98908
G1 X45.301 Y123.624 E29.07679
G1 X44.328 Y123.523 E29.18076
G1 X43.619 Y123.411 E29.25705
G1 X42.916 Y123.268 E29.33322
G1 X41.974 Y123.022 E29.43671
G1 X41.296 Y122.805 E29.51236
G1 X40.392 Y122.458 E29.61533
G1 X39.649 Y122.120 E29.70205
G1 X39.021 Y121.792 E29.77740
G1 X38.191 Y121.293 E29.88019
G1 X37.693 Y120.952 E29.94443
G1 X37.124 Y120.520 E30.02029
G1 X36.580 Y120.058 E30.09614
G1 X35.801 Y119.310 E30.21092
G1 X35.275 Y118.739 E30.29345
G1 X34.841 Y118.202 E30.36677
G1 X34.397 Y117.578 E30.44815
G1 X34.033 Y116.997 E30.52102
G1 X33.664 Y116.329 E30.60218
G1 X33.316 Y115.602 E30.68781
G1 X32.922 Y114.633 E30.79896
G1 X32.590 Y113.637 E30.91061
G1 X32.380 Y112.885 E30.99358
G1 X32.200 Y112.123 E31.07679
G1 X31.998 Y111.082 E31.18943
G1 X31.880 Y110.310 E31.27243
G1 X31.768 Y109.309 E31.37944
G1 X39.219 Y109.300 E32.17124
G1 X39.293 Y109.895 E32.23497
G1 X39.450 Y110.828 E32.33552
G1 X39.636 Y111.615 E32.42142
G1 X39.808 Y112.176 E32.48375
G1 X40.066 Y112.824 E32.55793
G1 X40.303 Y113.299 E32.61435
G1 X40.568 Y113.735 E32.66853
G1 X40.964 Y114.260 E32.73842
G1 X41.426 Y114.777 E32.81214
G1 X41.851 Y115.185 E32.87469
G1 X42.429 Y115.620 E32.95160
G1 X43.006 Y115.957 E33.02259
G1 X43.667 Y116.250 E33.09940
G1 X44.359 Y116.469 E33.17656
G1 X45.150 Y116.627 E33.26227
G1 X45.856 Y116.691 E33.33759
G1 X46.599 Y116.686 E33.41655
G1 X47.127 Y116.638 E33.47294
G1 X47.801 Y116.521 E33.54566
G1 X48.573 Y116.303 E33.63090
G1 X49.261 Y116.023 E33.70978
G1 X49.908 Y115.670 E33.78814
G1 X50.405 Y115.326 E33.85242
G1 X50.961 Y114.838 E33.93103
G1 X51.451 Y114.275 E34.01032
G1 X51.796 Y113.763 E34.07601
G1 X52.111 Y113.162 E34.14810
G1 X52.344 Y112.554 E34.21728
G1 X52.509 Y111.916 E34.28724
G1 X52.604 Y111.285 E34.35514
G1 X52.640 Y110.568 E34.43142
G1 X52.612 Y109.879 E34.50472
G1 X52.481 Y108.919 E34.60765
G1 X52.260 Y107.973 E34.71091
G1 X51.914 Y106.904 E34.83029
G1 X51.558 Y106.027 E34.93085
G1 X50.950 Y104.850 E35.07172
G1 X50.274 Y103.737 E35.21005
G1 X49.451 Y102.558 E35.36280
G1 X48.574 Y101.437 E35.51407
G1 X47.649 Y100.356 E35.66535
G1 X46.689 Y99.304 E35.81667
G1 X43.947 Y96.465 E36.23614
G1 X33.746 Y86.284 E37.76781
G1 X30.544 Y83.060 E38.25068
G1 X30.561 Y79.774 E38.59988
G1 X93.831 Y79.778 E45.32372
G1 X93.831 Y39.150 E49.64134
G1 X96.031 Y36.950 E49.97198
G1 X96.031 Y79.767 E54.52226
G1 X97.635 Y79.814 E54.69283
G1 X98.544 Y79.866 E54.78956
G1 X126.366 Y79.866 E57.74630
G1 X126.366 Y79.769 E57.75660
G1 X133.913 Y79.774 E58.55866
G1 X133.913 Y79.866 E58.56849
G1 X142.308 Y79.866 E59.46062
G1 X142.247 Y79.745 E59.47500
G1 X145.697 Y79.776 E59.84162
G1 X150.137 Y79.769 E60.31350
G1 X169.081 Y118.043 E64.85187
G1 X169.194 Y118.343 E64.88602
G1 X169.321 Y118.811 E64.93753
G1 X169.378 Y119.122 E64.97107
G1 X169.432 Y119.606 E65.02284
G1 X169.455 Y120.625 E65.13115
G1 X169.406 Y122.492 E65.32969
G1 X141.064 Y122.488 E68.34166
G1 X141.073 Y115.583 E69.07544
G1 X153.973 Y115.589 E70.44639
G1 X160.052 Y115.565 E71.09235
G1 X154.911 Y105.322 E72.31036
G1 X145.579 Y86.466 E74.54619
G1 X133.910 Y86.466 E75.78628
G1 X133.917 Y112.435 E78.54601
G1 X133.885 Y122.514 E79.61718
G1 X123.638 Y122.488 E80.70607
G1 X118.219 Y115.887 E81.61372
G1 X117.890 Y117.542 E81.79301
G1 X117.689 Y118.346 E81.88112
G1 X117.309 Y119.538 E82.01414
G1 X116.859 Y120.645 E82.14105
G1 X116.527 Y121.344 E82.22335
G1 X116.163 Y122.032 E82.30600
G1 X115.769 Y122.703 E82.38874
G1 X115.407 Y123.267 E82.45994
G1 X114.659 Y124.302 E82.59566
G1 X114.169 Y124.902 E82.67796
G1 X113.724 Y125.400 E82.74897
G1 X112.830 Y126.296 E82.88347
G1 X112.033 Y126.986 E82.99552
G1 X111.341 Y127.517 E83.08824
G1 X110.706 Y127.952 E83.17002
G1 X110.048 Y128.354 E83.25193
G1 X109.371 Y128.722 E83.33383
G1 X108.443 Y129.156 E83.44273
G1 X107.656 Y129.463 E83.53244
G1 X106.852 Y129.721 E83.62223
G1 X106.033 Y129.931 E83.71206
G1 X105.203 Y130.092 E83.80194
G1 X104.365 Y130.204 E83.89177
G1 X103.414 Y130.272 E83.99310
G1 X102.578 Y130.281 E84.08198
G1 X101.751 Y130.243 E84.16988
G1 X100.831 Y130.144 E84.26821
G1 X99.688 Y129.951 E84.39138
G1 X99.675 Y129.984 E84.39514
G1 X98.042 Y129.462 E84.57731
G1 X96.996 Y129.052 E84.69674
G1 X95.677 Y128.353 E84.85534
G1 X95.070 Y127.980 E84.93105
G1 X94.481 Y127.576 E85.00704
G1 X93.912 Y127.142 E85.08305
G1 X93.365 Y126.681 E85.15908
G1 X92.843 Y126.192 E85.23511
G1 X92.345 Y125.678 E85.31112
G1 X91.875 Y125.140 E85.38711
G1 X91.428 Y124.574 E85.46367
G1 X91.008 Y123.981 E85.54100
G1 X90.439 Y123.056 E85.65633
G1 X90.102 Y122.414 E85.73342
G1 X89.799 Y121.756 E85.81041
G1 X89.534 Y121.081 E85.88743
G1 X89.307 Y120.392 E85.96451
G1 X89.121 Y119.695 E86.04121
G1 X88.934 Y118.660 E86.15296
G1 X88.872 Y118.145 E86.20808
G1 X88.824 Y117.486 E86.27829
G1 X88.807 Y116.570 E86.37566
G1 X88.826 Y116.053 E86.43062
G1 X88.926 Y114.999 E86.54316
G1 X89.126 Y113.877 E86.66435
G1 X89.250 Y113.367 E86.72007
G1 X89.517 Y112.482 E86.81836
G1 X89.724 Y111.915 E86.88245
G1 X90.166 Y110.851 E87.00492
G1 X88.191 Y110.890 E87.21487
G1 X87.346 Y110.957 E87.30491
G1 X86.463 Y111.103 E87.40006
G1 X86.036 Y111.212 E87.44682
G1 X85.621 Y111.349 E87.49333
G1 X85.144 Y111.553 E87.54846
G1 X84.865 Y111.702 E87.58201
G1 X84.492 Y111.940 E87.62904
G1 X84.237 Y112.136 E87.66328
G1 X83.962 Y112.385 E87.70268
G1 X83.717 Y112.651 E87.74108
G1 X83.503 Y112.937 E87.77910
G1 X83.285 Y113.291 E87.82322
G1 X83.055 Y113.795 E87.88209
G1 X82.853 Y114.470 E87.95695
G1 X82.759 Y115.044 E88.01879
G1 X82.724 Y115.715 E88.09025
G1 X82.776 Y116.513 E88.17525
G1 X83.206 Y119.114 E88.45537
G1 X83.316 Y120.010 E88.55131
G1 X83.364 Y120.700 E88.62481
G1 X83.373 Y121.206 E88.67857
G1 X83.345 Y121.874 E88.74961
G1 X83.297 Y122.302 E88.79547
G1 X83.202 Y122.826 E88.85204
G1 X83.102 Y123.207 E88.89391
G1 X82.864 Y123.789 E88.96073
G1 X82.711 Y124.074 E88.99507
G1 X82.335 Y124.657 E89.06885
G1 X81.354 Y125.993 E89.24500
G1 X81.852 Y126.539 E89.32351
G1 X82.262 Y126.290 E89.37447
G1 X83.547 Y125.358 E89.54311
G1 X83.997 Y125.084 E89.59914
G1 X84.385 Y124.919 E89.64395
G1 X84.761 Y124.837 E89.68490
G1 X85.560 Y124.811 E89.76985
G1 X85.883 Y124.844 E89.80431
G1 X86.203 Y124.908 E89.83900
G1 X86.512 Y125.001 E89.87333
G1 X86.810 Y125.123 E89.90748
G1 X87.169 Y125.313 E89.95071
G1 X87.473 Y125.515 E89.98943
G1 X87.793 Y125.771 E90.03299
G1 X88.092 Y126.059 E90.07713
G1 X88.348 Y126.348 E90.11819
G1 X88.604 Y126.686 E90.16321
G1 X88.826 Y127.030 E90.20675
G1 X88.638 Y127.270 E90.23920
G1 X88.419 Y127.195 E90.26377
G1 X87.768 Y127.027 E90.33526
G1 X87.149 Y126.908 E90.40223
G1 X86.631 Y126.839 E90.45776
G1 X86.407 Y127.544 E90.53641
G1 X87.066 Y127.928 E90.61751
G1 X87.591 Y128.315 E90.68678
G1 X88.056 Y128.755 E90.75487
G1 X88.457 Y129.248 E90.82238
G1 X88.806 Y129.811 E90.89277
G1 X88.574 Y130.051 E90.92817
G1 X88.227 Y129.853 E90.97061
G1 X87.683 Y129.620 E91.03349
G1 X87.114 Y129.451 E91.09666
G1 X86.523 Y129.349 E91.16036
G1 X85.079 Y129.271 E91.31406
G1 X85.872 Y130.318 E91.45366
G1 X86.088 Y130.678 E91.49834
G1 X86.264 Y131.056 E91.54260
G1 X86.400 Y131.449 E91.58684
G1 X86.592 Y132.238 E91.67312
G1 X85.900 Y131.739 E91.76378
G1 X85.498 Y131.561 E91.81050
G1 X85.302 Y131.516 E91.83193
G1 X84.984 Y131.495 E91.86579
G1 X83.864 Y131.690 E91.98656
G1 X83.464 Y131.717 E92.02916
G1 X83.063 Y131.712 E92.07185
